; generated by PrusaSlicer 2.9.0 on 2025-02-13 at 00:29:17 UTC


;
;
; 

; external perimeters extrusion width = 0.65mm
; perimeters extrusion width = 0.65mm
; infill extrusion width = 0.65mm
; solid infill extrusion width = 0.65mm
; top infill extrusion width = 0.60mm
; support material extrusion width = 0.55mm
; first layer extrusion width = 0.65mm

M73 P0 R19
M73 Q0 S19
M201 X1000 Y1000 Z200 E5000 ; sets maximum accelerations, mm/sec^2
M203 X200 Y200 Z12 E120 ; sets maximum feedrates, mm / sec
M204 S1250 T1250 ; sets acceleration (S) and retract acceleration (R), mm/sec^2
M205 X8.00 Y8.00 Z0.40 E4.50 ; sets the jerk limits, mm/sec
M205 S0 T0 ; sets the minimum extruding and travel feed rate, mm/sec

; printing object Cover-PTFE_Small.STL id:0 copy 0
; stop printing object Cover-PTFE_Small.STL id:0 copy 0

;TYPE:Custom
M862.3 P "MK3S" ; printer model check
M862.1 P0.6 ; nozzle diameter check
M115 U3.14.1 ; tell printer latest fw version
G90 ; use absolute coordinates
M83 ; extruder relative mode
M104 S230 ; set extruder temp
M140 S85 ; set bed temp
M190 S85 ; wait for bed temp
M109 S230 ; wait for extruder temp
G28 W ; home all without mesh bed level
G80 X108.243 Y88.3939 W33.5142 H29.3623 ; mesh bed levelling

G1 Z0.2 F720
G1 Y-3 F1000 ; go outside print area
G92 E0
G1 X60 E9 F1000 ; intro line
G1 X100 E12.5 F1000 ; intro line

G92 E0
M221 S95
G21 ; set units to millimeters
G90 ; use absolute coordinates
M83 ; use relative distances for extrusion

M900 K0.04 ; Filament gcode LA 1.5
M900 K24 ; Filament gcode LA 1.0




M107
;LAYER_CHANGE
;Z:0.2
;HEIGHT:0.2
G1 E-1 F2100
G1 Z.4 F720
G1 X108.938 Y89.716 F10800
G1 Z.2 F720
G1 E1 F1500
M204 S800
;TYPE:Skirt/Brim
;WIDTH:0.65
G1 F1200
G1 X109.979 Y88.869 E.06775
G1 X110.85 Y88.697 E.04482
G1 X139.15 Y88.697 E1.42855
G1 X140.434 Y89.089 E.06777
G1 X141.282 Y90.13 E.06778
G1 X141.454 Y91.001 E.04482
G1 X141.454 Y114.741 E1.19837
G1 X140.777 Y116.371 E.0891
G1 X140.369 Y116.778 E.02909
G1 X138.743 Y117.452 E.08885
G1 X110.85 Y117.452 E1.40801
G1 X109.565 Y117.06 E.06782
M73 P1 R19
M73 Q1 S19
G1 X108.718 Y116.019 E.06775
G1 X108.547 Y115.149 E.04476
G1 X108.547 Y91.001 E1.21896
G1 X108.912 Y89.803 E.06322
M204 S1000
;WIPE_START
G1 F8640
G1 X108.938 Y89.716 E-.02097
G1 X109.979 Y88.869 E-.30988
G1 X110.85 Y88.697 E-.205
G1 X112.86 Y88.697 E-.46415
;WIPE_END
G1 Z.4 F720
; printing object Cover-PTFE_Small.STL id:0 copy 0
G1 X129.543 Y95.418 F10800
G1 Z.2 F720
G1 E1 F1500
M204 S800
;TYPE:Support material
G1 F1200
G1 X129.885 Y95.539 E.01831
G1 X130.488 Y95.945 E.0367
G1 X130.922 Y96.532 E.03685
G1 X131.134 Y97.226 E.03663
G1 X131.104 Y97.952 E.03668
G1 X130.833 Y98.629 E.03681
G1 X130.352 Y99.175 E.03673
G1 X129.716 Y99.529 E.03674
G1 X129.365 Y99.621 E.01832
G1 X128.635 Y99.621 E.03685
G1 X128.284 Y99.529 E.01832
G1 X127.648 Y99.175 E.03674
G1 X127.167 Y98.629 E.03673
G1 X126.896 Y97.952 E.03681
G1 X126.866 Y97.226 E.03668
G1 X127.078 Y96.532 E.03663
G1 X127.512 Y95.945 E.03685
G1 X127.795 Y95.718 E.01831
G1 X128.458 Y95.418 E.03673
G1 X128.817 Y95.356 E.01839
G1 X129.453 Y95.402 E.03219
M204 S1000
G1 X129.453 Y95.402 F10800
G1 X130.396 Y98.754
M204 S800
G1 F1200
G1 X130.396 Y96.721 E.10262
G1 X130.108 Y96.341 E.02407
G1 X129.722 Y96.074 E.02369
G1 X129.722 Y98.927 E.14402
G1 X129.047 Y99.099 E.03516
G1 X129.047 Y95.902 E.16138
G1 X128.373 Y96.028 E.03461
G1 X128.373 Y98.97 E.14851
G1 X127.796 Y98.559 E.03576
G1 X127.698 Y98.427 E.0083
G1 X127.698 Y96.147 E.11509
M204 S1000
;WIPE_START
G1 F8640
G1 X127.698 Y98.427 E-.52646
G1 X127.796 Y98.559 E-.03796
G1 X128.373 Y98.97 E-.16357
G1 X128.373 Y97.792 E-.27201
;WIPE_END
G1 Z.4 F720
G1 X129.302 Y106.337 F10800
G1 Z.2 F720
G1 E1 F1500
M204 S800
G1 F1200
G1 X129.674 Y106.505 E.0206
G1 X129.967 Y106.785 E.02046
G1 X130.15 Y107.147 E.02048
G1 X130.174 Y107.753 E.03061
G1 X130.022 Y108.132 E.02061
G1 X129.756 Y108.434 E.02031
G1 X129.205 Y108.685 E.03056
G1 X128.795 Y108.685 E.0207
G1 X128.415 Y108.549 E.02037
G1 X128.098 Y108.294 E.02054
G1 X127.885 Y107.949 E.02047
G1 X127.808 Y107.344 E.03079
G1 X128.033 Y106.785 E.03042
G1 X128.326 Y106.505 E.02046
G1 X128.698 Y106.337 E.0206
G1 X129.212 Y106.322 E.02596
M204 S1000
G1 X129.212 Y106.322 F10800
G1 X129.047 Y108.423
M204 S800
G1 F1200
G1 X129.047 Y106.848 E.0795
G1 X128.632 Y106.96 E.0217
G1 X128.415 Y107.206 E.01656
G1 X128.373 Y108.179 E.04916
M204 S1000
;WIPE_START
G1 F8640
G1 X128.415 Y107.206 E-.22488
G1 X128.632 Y106.96 E-.07574
G1 X129.047 Y106.848 E-.09925
G1 X129.047 Y108.423 E-.36367
;WIPE_END
G1 E-.23646 F2100
G1 Z.4 F720
G1 X128.364 Y111.224 F10800
G1 Z.2 F720
G1 E1 F1500
M204 S800
;TYPE:Perimeter
;WIDTH:0.649999
G1 F1200
G1 X127.858 Y111.111 E.02617
G1 X127.263 Y110.864 E.03252
G1 X126.726 Y110.527 E.032
G1 X126.247 Y110.101 E.03236
G1 X125.843 Y109.591 E.03284
G1 X125.538 Y109.037 E.03192
G1 X125.326 Y108.412 E.03331
G1 X125.226 Y107.789 E.03185
G1 X125.23 Y107.15 E.03226
G1 X125.342 Y106.52 E.0323
G1 X125.553 Y105.934 E.03144
G1 X125.879 Y105.354 E.03359
G1 X126.287 Y104.857 E.03246
G1 X126.703 Y104.494 E.02787
G1 X127.326 Y104.104 E.0371
G1 X127.921 Y103.871 E.03226
G1 X128.547 Y103.74 E.03228
G1 X129.188 Y103.718 E.03238
G1 X129.834 Y103.807 E.03292
G1 X130.371 Y103.974 E.02839
G1 X131.009 Y104.29 E.03594
G1 X131.522 Y104.674 E.03235
G1 X131.883 Y105.051 E.02635
G1 X132.121 Y105.354 E.01945
G1 X132.437 Y105.909 E.03224
G1 X132.658 Y106.52 E.0328
G1 X132.77 Y107.15 E.0323
G1 X132.774 Y107.789 E.03226
G1 X132.672 Y108.421 E.03232
G1 X132.463 Y109.03 E.0325
G1 X132.157 Y109.591 E.03226
G1 X131.753 Y110.101 E.03284
G1 X131.274 Y110.527 E.03236
G1 X130.737 Y110.864 E.032
G1 X130.142 Y111.111 E.03252
G1 X129.647 Y111.235 E.02576
G1 X129.123 Y111.284 E.02657
G1 X128.494 Y111.253 E.03179
G1 X128.452 Y111.243 E.00218
M204 S1000
G1 X128.452 Y111.243 F10800
G1 X128.465 Y110.63
M204 S800
G1 F1200
G1 X128.012 Y110.523 E.0235
G1 X127.515 Y110.312 E.02726
G1 X127.065 Y110.024 E.02697
G1 X126.666 Y109.661 E.02723
G1 X126.332 Y109.231 E.02748
G1 X126.079 Y108.761 E.02694
G1 X125.907 Y108.238 E.02779
G1 X125.828 Y107.712 E.02685
G1 X125.837 Y107.175 E.02711
G1 X125.936 Y106.645 E.02722
G1 X126.116 Y106.162 E.02602
G1 X126.396 Y105.672 E.02849
G1 X126.743 Y105.258 E.02727
G1 X127.16 Y104.906 E.02755
G1 X127.621 Y104.635 E.02699
G1 X128.123 Y104.444 E.02711
G1 X128.651 Y104.338 E.02718
G1 X129.188 Y104.325 E.02712
G1 X129.73 Y104.405 E.02766
G1 X130.24 Y104.572 E.02709
G1 X130.714 Y104.821 E.02703
G1 X131.142 Y105.148 E.02719
G1 X131.512 Y105.548 E.02751
G1 X131.805 Y106 E.02719
G1 X132.018 Y106.493 E.02711
G1 X132.144 Y107.023 E.0275
G1 X132.179 Y107.56 E.02716
G1 X132.124 Y108.093 E.02705
G1 X131.978 Y108.614 E.02731
G1 X131.753 Y109.09 E.02658
G1 X131.439 Y109.542 E.02778
G1 X131.054 Y109.928 E.02752
G1 X130.616 Y110.238 E.02709
G1 X130.135 Y110.471 E.02698
G1 X129.615 Y110.621 E.02732
G1 X129.074 Y110.679 E.02747
G1 X128.552 Y110.648 E.0264
M204 S1000
G1 X128.552 Y110.648 F10800
G1 X128.566 Y110.036
M204 S800
;TYPE:External perimeter
G1 F1200
G1 X128.539 Y110.034 E.00137
G1 X128.117 Y109.919 E.02208
G1 X127.723 Y109.735 E.02195
G1 X127.364 Y109.488 E.022
G1 X127.05 Y109.182 E.02213
G1 X126.795 Y108.83 E.02194
G1 X126.6 Y108.435 E.02224
G1 X126.489 Y108.064 E.01955
G1 X126.428 Y107.584 E.02442
G1 X126.45 Y107.149 E.02199
G1 X126.545 Y106.72 E.02218
G1 X126.712 Y106.318 E.02197
G1 X127.004 Y105.881 E.02653
G1 X127.238 Y105.621 E.01766
G1 X127.581 Y105.351 E.02203
G1 X128.034 Y105.119 E.02569
G1 X128.61 Y104.962 E.03014
G1 X129.188 Y104.932 E.02922
G1 X129.675 Y105.016 E.02495
G1 X130.084 Y105.165 E.02197
G1 X130.538 Y105.441 E.02682
G1 X130.801 Y105.658 E.01721
G1 X131.086 Y105.99 E.02209
G1 X131.311 Y106.363 E.02199
G1 X131.471 Y106.771 E.02212
G1 X131.557 Y107.199 E.02204
G1 X131.57 Y107.635 E.02202
G1 X131.511 Y108.066 E.02196
G1 X131.378 Y108.484 E.02214
G1 X131.179 Y108.871 E.02197
G1 X130.915 Y109.222 E.02217
G1 X130.596 Y109.52 E.02204
G1 X130.233 Y109.759 E.02194
G1 X129.834 Y109.936 E.02203
G1 X129.409 Y110.043 E.02212
G1 X128.977 Y110.074 E.02186
G1 X128.655 Y110.044 E.01632
M73 P1 R18
M204 S1000
;WIPE_START
G1 F8640
G1 X128.566 Y110.036 E-.02063
G1 X128.539 Y110.034 E-.00625
G1 X128.117 Y109.919 E-.10099
G1 X127.723 Y109.735 E-.10041
G1 X127.364 Y109.488 E-.10062
G1 X127.05 Y109.182 E-.10124
G1 X126.795 Y108.83 E-.10036
G1 X126.6 Y108.435 E-.10172
G1 X126.489 Y108.064 E-.08942
G1 X126.428 Y107.584 E-.11172
G1 X126.45 Y107.149 E-.10057
G1 X126.512 Y106.87 E-.06607
;WIPE_END
G1 Z.4 F720
G1 X131.853 Y94.522 F10800
G1 Z.2 F720
G1 E1 F1500
M204 S800
;TYPE:Perimeter
G1 F1200
G1 X132.275 Y94.985 E.03162
G1 X132.651 Y95.568 E.03502
G1 X132.926 Y96.216 E.03553
G1 X133.086 Y96.901 E.03551
G1 X133.129 Y97.597 E.0352
G1 X133.054 Y98.293 E.03534
G1 X132.86 Y98.969 E.0355
G1 X132.558 Y99.598 E.03522
G1 X132.152 Y100.169 E.03537
G1 X131.656 Y100.664 E.03537
G1 X131.08 Y101.069 E.03554
G1 X130.515 Y101.338 E.03159
G1 X130.003 Y101.498 E.02708
G1 X129.472 Y101.596 E.02726
G1 X128.926 Y101.629 E.02761
G1 X128.381 Y101.584 E.0276
G1 X127.698 Y101.42 E.03546
G1 X127.136 Y101.18 E.03085
G1 X126.681 Y100.908 E.02676
G1 X126.279 Y100.602 E.0255
G1 X125.903 Y100.237 E.02645
G1 X125.524 Y99.731 E.03191
G1 X125.197 Y99.11 E.03543
G1 X124.979 Y98.445 E.03533
G1 X124.878 Y97.751 E.0354
G1 X124.895 Y97.052 E.0353
G1 X125.028 Y96.367 E.03522
G1 X125.278 Y95.708 E.03558
G1 X125.637 Y95.105 E.03542
G1 X126.086 Y94.573 E.03514
G1 X126.627 Y94.121 E.03559
G1 X127.229 Y93.77 E.03518
G1 X127.882 Y93.524 E.03522
G1 X128.572 Y93.392 E.03546
G1 X129.274 Y93.379 E.03544
G1 X129.967 Y93.484 E.03538
G1 X130.632 Y93.707 E.03541
G1 X131.247 Y94.036 E.03521
G1 X131.791 Y94.456 E.03469
M204 S1000
G1 X131.791 Y94.456 F10800
G1 X131.437 Y94.956
M204 S800
;TYPE:External perimeter
G1 F1200
G1 X131.818 Y95.385 E.02896
G1 X132.135 Y95.889 E.03006
G1 X132.363 Y96.443 E.03024
G1 X132.492 Y97.028 E.03024
G1 X132.522 Y97.623 E.03007
G1 X132.451 Y98.216 E.03015
G1 X132.279 Y98.791 E.0303
G1 X132.016 Y99.326 E.03009
G1 X131.664 Y99.808 E.03013
G1 X131.235 Y100.227 E.03027
G1 X130.741 Y100.565 E.03021
G1 X130.265 Y100.785 E.02647
G1 X129.621 Y100.97 E.03382
G1 X129.03 Y101.023 E.02995
G1 X128.431 Y100.979 E.03032
G1 X127.85 Y100.832 E.03025
G1 X127.386 Y100.627 E.02561
G1 X126.806 Y100.26 E.03465
G1 X126.37 Y99.846 E.03035
G1 X126.012 Y99.37 E.03007
G1 X125.74 Y98.838 E.03016
G1 X125.56 Y98.267 E.03022
G1 X125.48 Y97.674 E.03021
G1 X125.501 Y97.078 E.0301
G1 X125.621 Y96.493 E.03014
G1 X125.841 Y95.935 E.03028
G1 X126.152 Y95.425 E.03015
G1 X126.543 Y94.973 E.03017
G1 X127.007 Y94.594 E.03024
G1 X127.525 Y94.3 E.03007
G1 X128.085 Y94.096 E.03009
G1 X128.675 Y93.99 E.03026
G1 X129.274 Y93.986 E.03024
G1 X129.864 Y94.083 E.03018
G1 X130.428 Y94.279 E.03014
G1 X130.951 Y94.566 E.03011
G1 X131.369 Y94.897 E.02691
M204 S1000
;WIPE_START
G1 F8640
G1 X131.437 Y94.956 E-.02079
G1 X131.818 Y95.385 E-.13248
G1 X132.135 Y95.889 E-.13748
M73 Q2 S19
G1 X132.363 Y96.443 E-.13833
G1 X132.492 Y97.028 E-.13832
G1 X132.522 Y97.623 E-.13756
G1 X132.451 Y98.216 E-.1379
G1 X132.279 Y98.791 E-.13858
G1 X132.243 Y98.863 E-.01856
;WIPE_END
G1 Z.4 F720
G1 X127.912 Y92.814 F10800
G1 Z.2 F720
M73 P2 R18
G1 E1 F1500
M204 S800
;TYPE:Perimeter
;WIDTH:0.798028
G1 F1200
G1 X128.189 Y92.791 E.01745
;WIDTH:0.750945
G1 X128.465 Y92.767 E.01631
;WIDTH:0.703862
G1 X129.274 Y92.756 E.04446
;WIDTH:0.720102
G1 X129.543 Y92.775 E.01518
;WIDTH:0.758518
G1 X129.813 Y92.794 E.01611
;WIDTH:0.796934
G1 X130.082 Y92.814 E.01691
M204 S1000
;WIPE_START
G1 F8640
G1 X127.912 Y92.814 E-.50106
G1 X128.189 Y92.791 E-.06418
G1 X128.465 Y92.767 E-.06397
G1 X129.274 Y92.756 E-.18682
G1 X129.543 Y92.775 E-.06227
G1 X129.813 Y92.794 E-.0625
G1 X130.069 Y92.813 E-.0592
;WIPE_END
G1 Z.4 F720
G1 X136.861 Y112.859 F10800
G1 Z.2 F720
G1 E1 F1500
M204 S800
;WIDTH:0.649999
G1 F1200
G1 X113.139 Y112.859 E1.19746
G1 X113.139 Y92.74 E1.01558
G1 X127.097 Y92.74 E.70458
M73 Q2 S18
;WIDTH:0.699342
G1 X127.368 Y92.765 E.01485
;WIDTH:0.748685
G1 X127.64 Y92.79 E.01603
;WIDTH:0.798028
G1 X127.912 Y92.814 E.01714
G1 X127.788 Y92.864 E.00839
;WIDTH:0.76443
G1 X127.665 Y92.914 E.00797
;WIDTH:0.730832
G1 X127.299 Y93.077 E.02292
;WIDTH:0.690416
G1 X126.933 Y93.24 E.02157
;WIDTH:0.649999
G1 X126.247 Y93.647 E.04026
G1 X125.629 Y94.173 E.04097
G1 X125.121 Y94.785 E.04015
G1 X124.715 Y95.482 E.04072
G1 X124.434 Y96.24 E.04081
G1 X124.288 Y97.025 E.04031
G1 X124.275 Y97.827 E.04049
G1 X124.399 Y98.624 E.04072
G1 X124.654 Y99.383 E.04042
G1 X125.036 Y100.092 E.04065
G1 X125.528 Y100.721 E.04031
G1 X125.923 Y101.102 E.0277
G1 X126.342 Y101.411 E.02628
G1 X126.803 Y101.696 E.02736
G1 X127.301 Y101.921 E.02759
G1 X127.844 Y102.085 E.02863
G1 X128.478 Y102.201 E.03253
G1 X129.001 Y102.239 E.02647
G1 X129.522 Y102.201 E.02637
G1 X130.156 Y102.085 E.03253
G1 X130.699 Y101.921 E.02863
G1 X131.197 Y101.696 E.02759
G1 X131.658 Y101.411 E.02736
G1 X132.077 Y101.102 E.02628
G1 X132.64 Y100.531 E.04048
G1 X133.101 Y99.871 E.04064
G1 X133.44 Y99.148 E.04031
G1 X133.656 Y98.369 E.04081
G1 X133.735 Y97.571 E.04048
G1 X133.68 Y96.775 E.04028
G1 X133.49 Y95.989 E.04082
G1 X133.167 Y95.248 E.0408
G1 X132.732 Y94.585 E.04003
G1 X132.179 Y93.989 E.04104
G1 X131.543 Y93.506 E.04031
G1 X130.835 Y93.135 E.04035
;WIDTH:0.698978
G1 X130.584 Y93.028 E.01488
;WIDTH:0.747956
G1 X130.333 Y92.921 E.016
;WIDTH:0.796934
G1 X130.082 Y92.814 E.01711
G1 X130.22 Y92.797 E.00872
;WIDTH:0.762806
G1 X130.358 Y92.779 E.00833
;WIDTH:0.728678
G1 X130.631 Y92.76 E.0156
;WIDTH:0.689339
G1 X130.903 Y92.74 E.01466
;WIDTH:0.649999
G1 X136.861 Y92.74 E.30075
G1 X136.861 Y94.628 E.0953
G1 X136.861 Y112.769 E.91574
M204 S1000
G1 X136.861 Y112.769 F10800
G1 X137.468 Y113.466
M204 S800
G1 F1200
G1 X112.532 Y113.466 E1.25874
G1 X112.532 Y92.133 E1.07686
G1 X137.468 Y92.133 E1.25874
G1 X137.468 Y94.628 E.12594
G1 X137.468 Y113.376 E.94638
M204 S1000
G1 X138.075 Y114.073 F10800
M204 S800
;TYPE:External perimeter
G1 F1200
G1 X111.925 Y114.073 E1.32002
G1 X111.925 Y91.526 E1.13815
M73 P3 R18
M73 Q3 S18
G1 X138.075 Y91.526 E1.32002
G1 X138.075 Y94.628 E.15659
G1 X138.075 Y113.983 E.97702
M204 S1000
;WIPE_START
G1 F8640
G1 X138.075 Y114.073 E-.02078
G1 X133.834 Y114.073 E-.97922
;WIPE_END
G1 Z.4 F720
G1 X135.389 Y92.983 F10800
G1 Z.2 F720
G1 E1 F1500
M204 S800
;TYPE:Solid infill
;WIDTH:0.650896
G1 F1200
G1 X136.345 Y93.939 E.06835
G1 X136.345 Y94.799 E.04348
G1 X134.802 Y93.256 E.11031
G1 X133.943 Y93.256 E.04343
G1 X136.345 Y95.658 E.17173
G1 X136.345 Y96.518 E.04348
G1 X133.083 Y93.256 E.23321
G1 X132.223 Y93.256 E.04348
G1 X136.345 Y97.378 E.2947
G1 X136.345 Y98.238 E.04348
G1 X133.998 Y95.891 E.16779
G1 X134.069 Y96.124 E.01231
G1 X134.186 Y96.676 E.02853
G1 X134.225 Y96.978 E.01539
G1 X136.345 Y99.098 E.15157
G1 X136.345 Y99.958 E.04348
G1 X134.24 Y97.852 E.15053
G1 X134.135 Y98.608 E.03859
G1 X136.345 Y100.817 E.15796
G1 X136.345 Y101.677 E.04348
G1 X133.941 Y99.273 E.17187
G1 X133.811 Y99.607 E.01812
G1 X133.678 Y99.87 E.0149
G1 X136.345 Y102.537 E.19067
G1 X136.345 Y103.397 E.04348
G1 X133.366 Y100.418 E.21298
G1 X132.995 Y100.907 E.03103
G1 X136.345 Y104.257 E.2395
G1 X136.345 Y105.116 E.04343
G1 X132.567 Y101.338 E.2701
G1 X132.254 Y101.629 E.02161
G1 X132.1 Y101.731 E.00934
G1 X136.345 Y105.976 E.30349
G1 X136.345 Y106.836 E.04348
G1 X131.583 Y102.074 E.34045
G1 X130.997 Y102.348 E.0327
G1 X136.345 Y107.696 E.38235
G1 X136.345 Y108.556 E.04348
G1 X130.35 Y102.561 E.4286
G1 X129.917 Y102.676 E.02265
G1 X129.631 Y102.701 E.01451
G1 X130.35 Y103.421 E.05144
G1 X130.755 Y103.568 E.02178
G1 X131.434 Y103.947 E.03931
G1 X132.028 Y104.437 E.03893
G1 X132.362 Y104.814 E.02546
G1 X132.556 Y105.076 E.01648
G1 X132.767 Y105.419 E.02036
G1 X132.912 Y105.707 E.0163
G1 X133.086 Y106.156 E.02434
G1 X136.345 Y109.415 E.233
G1 X136.345 Y110.275 E.04348
G1 X133.289 Y107.219 E.21848
G1 X133.303 Y107.604 E.01948
G1 X133.255 Y108.045 E.02243
G1 X136.345 Y111.135 E.22091
G1 X136.345 Y111.995 E.04348
G1 X133.105 Y108.755 E.23164
G1 X133.051 Y108.948 E.01013
