; generated by PrusaSlicer 2.9.0 on 2025-02-13 at 00:34:07 UTC


;
;
; 

; external perimeters extrusion width = 0.65mm
; perimeters extrusion width = 0.65mm
; infill extrusion width = 0.65mm
; solid infill extrusion width = 0.65mm
; top infill extrusion width = 0.60mm
; support material extrusion width = 0.55mm
; first layer extrusion width = 0.65mm

M73 P0 R23
M73 Q0 S23
M201 X1000 Y1000 Z200 E5000 ; sets maximum accelerations, mm/sec^2
M203 X200 Y200 Z12 E120 ; sets maximum feedrates, mm / sec
M204 S1250 T1250 ; sets acceleration (S) and retract acceleration (R), mm/sec^2
M205 X8.00 Y8.00 Z0.40 E4.50 ; sets the jerk limits, mm/sec
M205 S0 T0 ; sets the minimum extruding and travel feed rate, mm/sec

; printing object Cover-PTFE_Large.STL id:0 copy 0
; stop printing object Cover-PTFE_Large.STL id:0 copy 0

;TYPE:Custom
M862.3 P "MK3S" ; printer model check
M862.1 P0.6 ; nozzle diameter check
M115 U3.14.1 ; tell printer latest fw version
G90 ; use absolute coordinates
M83 ; extruder relative mode
M104 S230 ; set extruder temp
M140 S85 ; set bed temp
M190 S85 ; wait for bed temp
M109 S230 ; wait for extruder temp
G28 W ; home all without mesh bed level
G80 X108.243 Y88.3939 W33.5142 H29.3623 ; mesh bed levelling

G1 Z0.2 F720
G1 Y-3 F1000 ; go outside print area
G92 E0
G1 X60 E9 F1000 ; intro line
G1 X100 E12.5 F1000 ; intro line

G92 E0
M221 S95
G21 ; set units to millimeters
G90 ; use absolute coordinates
M83 ; use relative distances for extrusion

M900 K0.04 ; Filament gcode LA 1.5
M900 K24 ; Filament gcode LA 1.0




M107
;LAYER_CHANGE
;Z:0.2
;HEIGHT:0.2
G1 E-1 F2100
M73 P0 R22
G1 Z.4 F720
G1 X108.938 Y89.716 F10800
G1 Z.2 F720
G1 E1 F1500
M204 S800
;TYPE:Skirt/Brim
;WIDTH:0.65
G1 F1200
G1 X109.979 Y88.869 E.06775
G1 X110.85 Y88.697 E.04482
G1 X139.15 Y88.697 E1.42855
G1 X140.434 Y89.089 E.06777
G1 X141.282 Y90.13 E.06778
G1 X141.454 Y91.001 E.04482
G1 X141.454 Y114.741 E1.19837
G1 X140.777 Y116.371 E.0891
G1 X140.369 Y116.778 E.02909
G1 X138.743 Y117.452 E.08885
G1 X110.85 Y117.452 E1.40801
G1 X109.565 Y117.06 E.06782
G1 X108.718 Y116.019 E.06775
G1 X108.547 Y115.149 E.04476
G1 X108.547 Y91.001 E1.21896
G1 X108.912 Y89.803 E.06322
M73 Q0 S22
M204 S1000
;WIPE_START
G1 F8640
G1 X108.938 Y89.716 E-.02097
G1 X109.979 Y88.869 E-.30988
G1 X110.85 Y88.697 E-.205
G1 X112.86 Y88.697 E-.46415
;WIPE_END
G1 Z.4 F720
; printing object Cover-PTFE_Large.STL id:0 copy 0
G1 X129.543 Y95.418 F10800
G1 Z.2 F720
G1 E1 F1500
M73 Q1 S22
M204 S800
;TYPE:Support material
G1 F1200
G1 X129.885 Y95.539 E.01831
G1 X130.488 Y95.945 E.0367
G1 X130.922 Y96.532 E.03685
G1 X131.134 Y97.226 E.03663
G1 X131.104 Y97.952 E.03668
G1 X130.833 Y98.629 E.03681
G1 X130.352 Y99.175 E.03673
G1 X129.716 Y99.529 E.03674
M73 P1 R22
G1 X129.365 Y99.621 E.01832
G1 X128.635 Y99.621 E.03685
G1 X128.284 Y99.529 E.01832
G1 X127.648 Y99.175 E.03674
G1 X127.167 Y98.629 E.03673
G1 X126.896 Y97.952 E.03681
G1 X126.866 Y97.226 E.03668
G1 X127.078 Y96.532 E.03663
G1 X127.512 Y95.945 E.03685
G1 X127.795 Y95.718 E.01831
G1 X128.458 Y95.418 E.03673
G1 X128.817 Y95.356 E.01839
G1 X129.453 Y95.402 E.03219
M204 S1000
G1 X129.453 Y95.402 F10800
G1 X130.396 Y98.754
M204 S800
G1 F1200
G1 X130.396 Y96.721 E.10262
G1 X130.108 Y96.341 E.02407
G1 X129.722 Y96.074 E.02369
G1 X129.722 Y98.927 E.14402
G1 X129.047 Y99.099 E.03516
G1 X129.047 Y95.902 E.16138
G1 X128.373 Y96.028 E.03461
G1 X128.373 Y98.97 E.14851
G1 X127.796 Y98.559 E.03576
G1 X127.698 Y98.427 E.0083
G1 X127.698 Y96.147 E.11509
M204 S1000
;WIPE_START
G1 F8640
G1 X127.698 Y98.427 E-.52646
G1 X127.796 Y98.559 E-.03796
G1 X128.373 Y98.97 E-.16357
G1 X128.373 Y97.792 E-.27201
;WIPE_END
G1 Z.4 F720
G1 X129.543 Y105.418 F10800
G1 Z.2 F720
G1 E1 F1500
M204 S800
G1 F1200
G1 X130.204 Y105.718 E.03664
G1 X130.488 Y105.947 E.01842
G1 X130.922 Y106.532 E.03677
G1 X131.134 Y107.226 E.03663
G1 X131.104 Y107.954 E.03678
G1 X130.832 Y108.63 E.03678
G1 X130.353 Y109.174 E.03659
G1 X129.716 Y109.529 E.03681
G1 X129.001 Y109.653 E.03663
G1 X128.637 Y109.621 E.01845
G1 X127.95 Y109.378 E.03678
G1 X127.384 Y108.923 E.03666
G1 X127.168 Y108.63 E.01837
G1 X126.896 Y107.954 E.03678
G1 X126.866 Y107.226 E.03678
G1 X127.078 Y106.532 E.03663
G1 X127.512 Y105.947 E.03677
G1 X127.796 Y105.718 E.01842
G1 X128.458 Y105.418 E.03669
G1 X128.817 Y105.356 E.01839
G1 X129.453 Y105.402 E.03219
M204 S1000
G1 X129.453 Y105.402 F10800
G1 X130.396 Y108.755
M204 S800
G1 F1200
G1 X130.396 Y106.721 E.10267
G1 X130.108 Y106.343 E.02399
G1 X129.722 Y106.074 E.02375
G1 X129.722 Y108.927 E.14402
G1 X129.047 Y109.1 E.03517
G1 X129.047 Y105.902 E.16143
G1 X128.373 Y106.028 E.03461
G1 X128.373 Y108.97 E.14851
G1 X127.796 Y108.561 E.0357
G1 X127.698 Y108.428 E.00834
G1 X127.698 Y106.149 E.11504
M204 S1000
;WIPE_START
G1 F8640
G1 X127.698 Y108.428 E-.52623
G1 X127.796 Y108.561 E-.03815
G1 X128.373 Y108.97 E-.16331
G1 X128.373 Y107.791 E-.27231
;WIPE_END
G1 Z.4 F720
G1 X128.047 Y112.168 F10800
G1 Z.2 F720
G1 E1 F1500
M204 S800
;TYPE:Perimeter
;WIDTH:0.709322
G1 F1200
G1 X127.805 Y112.092 E.01406
;WIDTH:0.682112
G1 X127.544 Y112.01 E.01454
;WIDTH:0.654901
G1 X126.803 Y111.696 E.04095
;WIDTH:0.649999
G1 X126.128 Y111.267 E.04037
G1 X125.531 Y110.727 E.04063
G1 X125.358 Y110.53 E.01323
G1 X125.034 Y110.089 E.02762
G1 X124.655 Y109.383 E.04045
G1 X124.4 Y108.627 E.04027
G1 X124.275 Y107.827 E.04087
G1 X124.288 Y107.025 E.04049
G1 X124.434 Y106.24 E.04031
G1 X124.715 Y105.482 E.04081
G1 X125.121 Y104.784 E.04076
G1 X125.632 Y104.172 E.04025
G1 X126.232 Y103.659 E.03985
G1 X126.87 Y103.275 E.03759
G1 X127.587 Y102.984 E.03906
G1 X128.043 Y102.867 E.02376
;WIDTH:0.649439
G1 X128.589 Y102.787 E.02783
;WIDTH:0.631737
G1 X129.149 Y102.789 E.02742
;WIDTH:0.647505
G1 X129.643 Y102.814 E.02487
;WIDTH:0.649999
G1 X130.322 Y102.952 E.03498
G1 X130.835 Y103.135 E.02749
G1 X131.498 Y103.48 E.03773
G1 X132.183 Y103.994 E.04323
G1 X132.729 Y104.582 E.0405
G1 X133.167 Y105.248 E.04024
G1 X133.49 Y105.989 E.0408
G1 X133.68 Y106.775 E.04082
G1 X133.735 Y107.571 E.04028
G1 X133.656 Y108.37 E.04053
G1 X133.439 Y109.15 E.04087
G1 X133.101 Y109.87 E.04015
G1 X132.642 Y110.53 E.04058
G1 X132.073 Y111.105 E.04083
G1 X131.419 Y111.572 E.04057
G1 X130.699 Y111.921 E.04039
;WIDTH:0.682128
G1 X129.931 Y112.16 E.04275
G1 X129.133 Y112.24 E.04263
;WIDTH:0.682487
G1 X128.323 Y112.204 E.04312
;WIDTH:0.709322
G1 X128.136 Y112.182 E.01043
M204 S1000
G1 X128.136 Y112.182 F10800
G1 X128.21 Y111.543
M204 S800
;WIDTH:0.649999
G1 F1200
G1 X127.698 Y111.42 E.02658
G1 X127.053 Y111.143 E.03543
G1 X126.467 Y110.764 E.03523
G1 X125.951 Y110.288 E.03544
G1 X125.847 Y110.17 E.00794
G1 X125.522 Y109.729 E.02765
G1 X125.197 Y109.111 E.03525
G1 X124.98 Y108.448 E.03521
G1 X124.878 Y107.75 E.03561
G1 X124.895 Y107.052 E.03524
G1 X125.028 Y106.367 E.03522
G1 X125.278 Y105.708 E.03558
G1 X125.637 Y105.105 E.03542
G1 X126.087 Y104.573 E.03517
G1 X126.614 Y104.131 E.03472
G1 X127.166 Y103.805 E.03236
G1 X127.791 Y103.556 E.03396
G1 X128.46 Y103.411 E.03455
G1 X129.001 Y103.379 E.02736
G1 X129.54 Y103.411 E.02726
G1 X130.118 Y103.524 E.02973
G1 X130.632 Y103.707 E.02754
G1 X131.202 Y104.01 E.03259
G1 X131.801 Y104.466 E.038
G1 X132.273 Y104.983 E.03534
G1 X132.651 Y105.568 E.03516
G1 X132.926 Y106.216 E.03553
G1 X133.086 Y106.901 E.03551
G1 X133.129 Y107.597 E.0352
G1 X133.054 Y108.294 E.03539
G1 X132.859 Y108.97 E.03552
G1 X132.558 Y109.598 E.03515
G1 X132.153 Y110.17 E.03538
G1 X131.654 Y110.666 E.03552
G1 X131.08 Y111.069 E.0354
G1 X130.449 Y111.368 E.03525
G1 X129.774 Y111.557 E.03538
G1 X129.08 Y111.63 E.03523
G1 X128.377 Y111.583 E.03557
G1 X128.298 Y111.564 E.0041
M204 S1000
G1 X128.298 Y111.564 F10800
G1 X128.362 Y110.961
M204 S800
;TYPE:External perimeter
G1 F1200
G1 X127.85 Y110.832 E.02665
G1 X127.304 Y110.59 E.03015
G1 X126.806 Y110.26 E.03016
G1 X126.336 Y109.81 E.03285
G1 X126.011 Y109.369 E.02765
G1 X125.74 Y108.838 E.03009
G1 X125.56 Y108.269 E.03013
G1 X125.48 Y107.674 E.03031
G1 X125.501 Y107.078 E.0301
G1 X125.622 Y106.493 E.03016
G1 X125.841 Y105.935 E.03026
G1 X126.153 Y105.425 E.03018
G1 X126.543 Y104.974 E.0301
G1 X126.996 Y104.603 E.02956
G1 X127.462 Y104.335 E.02714
G1 X127.994 Y104.128 E.02882
G1 X128.563 Y104.01 E.02933
G1 X129.149 Y103.986 E.02961
G1 X129.752 Y104.064 E.03069
G1 X130.341 Y104.248 E.03115
G1 X130.906 Y104.54 E.0321
G1 X131.42 Y104.938 E.03282
G1 X131.817 Y105.384 E.03014
G1 X132.135 Y105.889 E.03012
G1 X132.363 Y106.443 E.03024
G1 X132.492 Y107.028 E.03024
G1 X132.522 Y107.623 E.03007
G1 X132.451 Y108.218 E.03025
G1 X132.279 Y108.791 E.0302
G1 X132.016 Y109.325 E.03005
G1 X131.664 Y109.81 E.03025
G1 X131.234 Y110.227 E.03024
G1 X130.741 Y110.565 E.03017
G1 X130.198 Y110.815 E.03018
G1 X129.621 Y110.97 E.03016
G1 X129.027 Y111.026 E.03012
G1 X128.45 Y110.98 E.02922
M204 S1000
;WIPE_START
G1 F8640
G1 X128.362 Y110.961 E-.02079
G1 X127.85 Y110.832 E-.12192
G1 X127.304 Y110.59 E-.1379
G1 X126.806 Y110.26 E-.13794
G1 X126.336 Y109.81 E-.15025
G1 X126.011 Y109.369 E-.12649
G1 X125.74 Y108.838 E-.13765
G1 X125.56 Y108.269 E-.1378
G1 X125.543 Y108.143 E-.02926
;WIPE_END
G1 Z.4 F720
G1 X126.147 Y94.521 F10800
G1 Z.2 F720
G1 E1 F1500
M204 S800
;TYPE:Perimeter
G1 F1200
G1 X126.627 Y94.121 E.03154
G1 X127.229 Y93.77 E.03518
G1 X127.882 Y93.524 E.03522
G1 X128.572 Y93.392 E.03546
G1 X129.274 Y93.379 E.03544
G1 X129.967 Y93.484 E.03538
G1 X130.632 Y93.707 E.03541
G1 X131.247 Y94.036 E.03521
G1 X131.799 Y94.462 E.0352
G1 X132.275 Y94.985 E.0357
G1 X132.651 Y95.568 E.03502
G1 X132.926 Y96.216 E.03553
G1 X133.086 Y96.901 E.03551
G1 X133.129 Y97.597 E.0352
G1 X133.054 Y98.293 E.03534
G1 X132.86 Y98.969 E.0355
G1 X132.558 Y99.598 E.03522
G1 X132.152 Y100.169 E.03537
G1 X131.656 Y100.664 E.03537
G1 X131.123 Y101.039 E.0329
G1 X130.533 Y101.33 E.03321
G1 X129.884 Y101.529 E.03427
G1 X129.201 Y101.618 E.03477
G1 X128.636 Y101.605 E.02853
G1 X128.116 Y101.529 E.02653
G1 X127.551 Y101.368 E.02966
G1 X127.053 Y101.143 E.02759
G1 X126.478 Y100.771 E.03457
G1 X125.949 Y100.284 E.0363
G1 X125.524 Y99.731 E.03521
G1 X125.197 Y99.11 E.03543
G1 X124.979 Y98.445 E.03533
G1 X124.878 Y97.751 E.0354
G1 X124.895 Y97.052 E.0353
G1 X125.028 Y96.367 E.03522
G1 X125.278 Y95.708 E.03558
G1 X125.637 Y95.105 E.03542
G1 X126.079 Y94.58 E.03464
M204 S1000
G1 X126.079 Y94.58 F10800
G1 X126.563 Y94.956
M204 S800
;TYPE:External perimeter
G1 F1200
G1 X127.007 Y94.594 E.02892
G1 X127.525 Y94.3 E.03007
G1 X128.085 Y94.096 E.03009
G1 X128.675 Y93.99 E.03026
G1 X129.274 Y93.986 E.03024
G1 X129.864 Y94.083 E.03018
G1 X130.428 Y94.279 E.03014
G1 X130.951 Y94.566 E.03011
G1 X131.419 Y94.936 E.03012
G1 X131.818 Y95.385 E.03032
G1 X132.135 Y95.889 E.03006
G1 X132.363 Y96.443 E.03024
G1 X132.492 Y97.028 E.03024
G1 X132.522 Y97.623 E.03007
G1 X132.451 Y98.216 E.03015
G1 X132.279 Y98.791 E.0303
G1 X132.016 Y99.326 E.03009
G1 X131.664 Y99.808 E.03013
G1 X131.235 Y100.227 E.03027
G1 X130.784 Y100.536 E.0276
G1 X130.283 Y100.777 E.02806
G1 X129.731 Y100.941 E.02907
G1 X129.151 Y101.013 E.0295
G1 X128.544 Y100.988 E.03067
G1 X127.944 Y100.857 E.031
G1 X127.37 Y100.62 E.03135
G1 X126.817 Y100.267 E.03312
G1 X126.37 Y99.846 E.031
G1 X126.012 Y99.37 E.03007
G1 X125.74 Y98.838 E.03016
G1 X125.56 Y98.267 E.03022
G1 X125.48 Y97.674 E.03021
G1 X125.501 Y97.078 E.0301
G1 X125.621 Y96.493 E.03014
G1 X125.841 Y95.935 E.03028
G1 X126.152 Y95.425 E.03015
G1 X126.501 Y95.02 E.02699
M204 S1000
;WIPE_START
G1 F8640
G1 X126.563 Y94.956 E-.02057
G1 X127.007 Y94.594 E-.13228
G1 X127.525 Y94.3 E-.13753
G1 X128.085 Y94.096 E-.13762
G1 X128.675 Y93.99 E-.13841
G1 X129.274 Y93.986 E-.13831
G1 X129.864 Y94.083 E-.13806
G1 X130.428 Y94.279 E-.13787
G1 X130.501 Y94.319 E-.01935
;WIPE_END
G1 Z.4 F720
G1 X133.77 Y93.954 F10800
G1 Z.2 F720
G1 E1 F1500
M204 S800
;TYPE:Perimeter
G1 F1200
G1 X135.647 Y93.954 E.09475
G1 X135.647 Y94.628 E.03402
G1 X135.647 Y95.336 E.03574
;WIDTH:0.657555
G1 X135.643 Y95.893 E.02847
;WIDTH:0.698974
G1 X135.622 Y96.167 E.01499
;WIDTH:0.740392
G1 X135.601 Y96.44 E.01588
G1 X135.618 Y96.957 E.03
;WIDTH:0.707596
G1 X135.624 Y97.503 E.03018
;WIDTH:0.706657
G1 X135.618 Y98.026 E.02887
;WIDTH:0.741182
G1 X135.601 Y98.572 E.03172
G1 X135.615 Y98.843 E.01576
;WIDTH:0.712967
G1 X135.629 Y99.113 E.01506
;WIDTH:0.684751
G1 X135.647 Y99.662 E.02932
;WIDTH:0.649999
G1 X135.647 Y105.336 E.28642
;WIDTH:0.657554
G1 X135.643 Y105.893 E.02847
;WIDTH:0.698973
G1 X135.622 Y106.167 E.01499
;WIDTH:0.740391
G1 X135.601 Y106.44 E.01588
G1 X135.618 Y106.957 E.03
;WIDTH:0.707596
G1 X135.624 Y107.503 E.03018
;WIDTH:0.706561
G1 X135.618 Y108.024 E.02875
;WIDTH:0.741084
G1 X135.601 Y108.572 E.03183
G1 X135.615 Y108.846 E.01593
;WIDTH:0.7126
G1 X135.63 Y109.119 E.01522
;WIDTH:0.684116
G1 X135.647 Y109.666 E.02918
;WIDTH:0.649999
G1 X135.647 Y111.645 E.0999
G1 X133.266 Y111.645 E.12019
G1 X133.62 Y111.25 E.02677
G1 X134.186 Y110.415 E.05092
G1 X134.6 Y109.508 E.05033
;WIDTH:0.684116
G1 X134.777 Y108.991 E.02913
;WIDTH:0.7126
G1 X134.841 Y108.76 E.01335
;WIDTH:0.741084
G1 X134.906 Y108.528 E.01399
G1 X134.971 Y107.517 E.05881
;WIDTH:0.740391
G1 X134.912 Y106.513 E.05833
G1 X134.764 Y106.024 E.02963
;WIDTH:0.695195
G1 X134.616 Y105.536 E.02766
;WIDTH:0.649999
G1 X134.199 Y104.608 E.05136
G1 X133.641 Y103.78 E.0504
G1 X132.946 Y103.05 E.05088
G1 X132.215 Y102.5 E.04618
G1 X132.919 Y101.977 E.04427
G1 X133.616 Y101.253 E.05073
G1 X134.186 Y100.415 E.05116
G1 X134.601 Y99.504 E.05053
;WIDTH:0.695591
G1 X134.753 Y99.016 E.02774
;WIDTH:0.741182
G1 X134.906 Y98.528 E.02969
G1 X134.971 Y97.517 E.05882
;WIDTH:0.740392
G1 X134.912 Y96.513 E.05833
G1 X134.764 Y96.024 E.02963
;WIDTH:0.695196
G1 X134.616 Y95.536 E.02766
;WIDTH:0.649999
G1 X134.412 Y95.028 E.02763
G1 X134.199 Y94.608 E.02377
G1 X133.82 Y94.03 E.03489
M204 S1000
;WIPE_START
G1 F8640
G1 X133.77 Y93.954 E-.02101
G1 X135.647 Y93.954 E-.4334
G1 X135.647 Y94.628 E-.15563
M73 Q2 S22
G1 X135.647 Y95.336 E-.16348
G1 X135.643 Y95.893 E-.12862
G1 X135.622 Y96.167 E-.06345
G1 X135.611 Y96.316 E-.03441
;WIPE_END
G1 Z.4 F720
G1 X131.448 Y112.25 F10800
G1 Z.2 F720
M73 P2 R22
G1 E1 F1500
M204 S800
G1 F1200
G1 X131.758 Y112.076 E.01794
G1 X132.493 Y111.544 E.0458
G1 X133.131 Y110.89 E.04612
G1 X133.643 Y110.143 E.04571
G1 X134.019 Y109.329 E.04526
G1 X134.258 Y108.447 E.04613
G1 X134.342 Y107.544 E.04578
G1 X134.274 Y106.649 E.04531
G1 X134.053 Y105.763 E.04609
G1 X133.683 Y104.928 E.0461
G1 X133.185 Y104.181 E.04532
G1 X132.564 Y103.522 E.04571
G1 X131.84 Y102.976 E.04577
G1 X131.363 Y102.71 E.02757
G1 X130.87 Y102.502 E.02701
G1 X131.033 Y102.436 E.00888
G1 X131.801 Y102.047 E.04346
G1 X132.498 Y101.539 E.04354
G1 X133.128 Y100.892 E.04559
G1 X133.643 Y100.143 E.04588
G1 X134.02 Y99.326 E.04542
G1 X134.258 Y98.445 E.04607
G1 X134.342 Y97.544 E.04568
G1 X134.274 Y96.649 E.04531
G1 X134.053 Y95.763 E.04609
G1 X133.683 Y94.928 E.0461
G1 X133.189 Y94.186 E.045
G1 X132.828 Y93.773 E.02769
G1 X132.349 Y93.347 E.03236
G1 X136.254 Y93.347 E.19712
G1 X136.254 Y94.628 E.06466
G1 X136.254 Y112.252 E.88964
G1 X131.538 Y112.25 E.23806
M204 S1000
;WIPE_START
G1 F8640
G1 X131.448 Y112.25 E-.02078
G1 X131.758 Y112.076 E-.08208
G1 X132.493 Y111.544 E-.20951
G1 X133.131 Y110.89 E-.21096
G1 X133.643 Y110.143 E-.20911
G1 X134.019 Y109.329 E-.20704
G1 X134.088 Y109.076 E-.06052
;WIPE_END
G1 Z.4 F720
G1 X127.912 Y92.814 F10800
G1 Z.2 F720
G1 E1 F1500
M204 S800
;WIDTH:0.798028
G1 F1200
G1 X128.189 Y92.791 E.01745
;WIDTH:0.750945
G1 X128.465 Y92.767 E.01631
;WIDTH:0.703862
G1 X129.274 Y92.756 E.04446
;WIDTH:0.720102
G1 X129.543 Y92.775 E.01518
;WIDTH:0.758518
G1 X129.813 Y92.794 E.01611
;WIDTH:0.796934
G1 X130.082 Y92.814 E.01691
M204 S1000
;WIPE_START
G1 F8640
G1 X127.912 Y92.814 E-.50106
G1 X128.189 Y92.791 E-.06418
G1 X128.465 Y92.767 E-.06397
G1 X129.274 Y92.756 E-.18682
G1 X129.543 Y92.775 E-.06227
G1 X129.813 Y92.794 E-.0625
G1 X130.069 Y92.813 E-.0592
;WIPE_END
G1 Z.4 F720
G1 X124.23 Y93.954 F10800
G1 Z.2 F720
G1 E1 F1500
M204 S800
;WIDTH:0.649999
G1 F1200
G1 X124.089 Y94.145 E.01198
G1 X123.588 Y95.028 E.05125
