; generated by PrusaSlicer 2.9.0 on 2025-02-13 at 00:36:26 UTC


;
;
; 

; external perimeters extrusion width = 0.65mm
; perimeters extrusion width = 0.65mm
; infill extrusion width = 0.65mm
; solid infill extrusion width = 0.65mm
; top infill extrusion width = 0.60mm
; support material extrusion width = 0.55mm
; first layer extrusion width = 0.65mm

M73 P0 R20
M73 Q0 S20
M201 X1000 Y1000 Z200 E5000 ; sets maximum accelerations, mm/sec^2
M203 X200 Y200 Z12 E120 ; sets maximum feedrates, mm / sec
M204 S1250 T1250 ; sets acceleration (S) and retract acceleration (R), mm/sec^2
M205 X8.00 Y8.00 Z0.40 E4.50 ; sets the jerk limits, mm/sec
M205 S0 T0 ; sets the minimum extruding and travel feed rate, mm/sec

; printing object Cover-Nut_Flush.STL id:0 copy 0
; stop printing object Cover-Nut_Flush.STL id:0 copy 0

;TYPE:Custom
M862.3 P "MK3S" ; printer model check
M862.1 P0.6 ; nozzle diameter check
M115 U3.14.1 ; tell printer latest fw version
G90 ; use absolute coordinates
M83 ; extruder relative mode
M104 S230 ; set extruder temp
M140 S85 ; set bed temp
M190 S85 ; wait for bed temp
M109 S230 ; wait for extruder temp
G28 W ; home all without mesh bed level
G80 X108.242 Y88.3939 W33.5162 H29.3633 ; mesh bed levelling

G1 Z0.2 F720
G1 Y-3 F1000 ; go outside print area
G92 E0
G1 X60 E9 F1000 ; intro line
G1 X100 E12.5 F1000 ; intro line

G92 E0
M221 S95
G21 ; set units to millimeters
G90 ; use absolute coordinates
M83 ; use relative distances for extrusion

M900 K0.04 ; Filament gcode LA 1.5
M900 K24 ; Filament gcode LA 1.0




M107
;LAYER_CHANGE
;Z:0.2
;HEIGHT:0.2
G1 E-1 F2100
G1 Z.4 F720
G1 X108.937 Y89.716 F10800
G1 Z.2 F720
G1 E1 F1500
M204 S800
;TYPE:Skirt/Brim
;WIDTH:0.65
G1 F1200
G1 X109.978 Y88.869 E.06775
G1 X110.849 Y88.697 E.04482
G1 X139.151 Y88.697 E1.42865
G1 X140.435 Y89.089 E.06777
G1 X141.283 Y90.13 E.06778
G1 X141.455 Y91.001 E.04482
G1 X141.455 Y114.741 E1.19837
G1 X140.778 Y116.371 E.0891
G1 X140.37 Y116.779 E.02913
G1 X138.743 Y117.453 E.0889
G1 X110.849 Y117.453 E1.40806
G1 X109.564 Y117.061 E.06782
G1 X108.717 Y116.02 E.06775
G1 X108.546 Y115.15 E.04476
G1 X108.546 Y91.001 E1.21901
G1 X108.911 Y89.803 E.06322
M73 P1 R20
M73 Q1 S20
M204 S1000
;WIPE_START
G1 F8640
G1 X108.937 Y89.716 E-.02097
G1 X109.978 Y88.869 E-.30988
G1 X110.849 Y88.697 E-.205
G1 X112.859 Y88.697 E-.46415
;WIPE_END
G1 Z.4 F720
; printing object Cover-Nut_Flush.STL id:0 copy 0
G1 X130.804 Y109.306 F10800
G1 Z.2 F720
G1 E1 F1500
M204 S800
;TYPE:Support material
G1 F1200
G1 X127.196 Y109.306 E.18213
G1 X127.196 Y105.696 E.18223
G1 X130.804 Y105.696 E.18213
G1 X130.804 Y109.215 E.17764
M204 S1000
G1 X129.722 Y109.033 F10800
M204 S800
G1 F1200
G1 X129.722 Y106.242 E.14089
G1 X129.047 Y106.242 E.03407
G1 X129.047 Y108.76 E.12711
G1 X128.373 Y108.76 E.03402
G1 X128.373 Y105.969 E.14089
M204 S1000
;WIPE_START
G1 F8640
G1 X128.373 Y108.76 E-.64445
G1 X129.047 Y108.76 E-.15563
G1 X129.047 Y107.894 E-.19992
;WIPE_END
G1 Z.4 F720
G1 X129.542 Y95.418 F10800
G1 Z.2 F720
G1 E1 F1500
M204 S800
G1 F1200
G1 X129.885 Y95.539 E.01836
G1 X130.488 Y95.945 E.0367
G1 X130.922 Y96.532 E.03685
G1 X131.134 Y97.226 E.03663
G1 X131.104 Y97.952 E.03668
G1 X130.833 Y98.629 E.03681
G1 X130.352 Y99.175 E.03673
G1 X129.716 Y99.529 E.03674
G1 X129.365 Y99.621 E.01832
G1 X128.635 Y99.621 E.03685
G1 X128.284 Y99.529 E.01832
G1 X127.648 Y99.175 E.03674
G1 X127.167 Y98.629 E.03673
G1 X126.896 Y97.952 E.03681
G1 X126.866 Y97.226 E.03668
G1 X127.078 Y96.532 E.03663
G1 X127.512 Y95.945 E.03685
G1 X127.795 Y95.718 E.01831
G1 X128.458 Y95.418 E.03673
G1 X128.817 Y95.356 E.01839
G1 X129.453 Y95.402 E.03219
M204 S1000
G1 X129.453 Y95.402 F10800
G1 X130.396 Y98.754
M204 S800
G1 F1200
G1 X130.396 Y96.721 E.10262
G1 X130.108 Y96.341 E.02407
G1 X129.722 Y96.074 E.02369
G1 X129.722 Y98.927 E.14402
G1 X129.047 Y99.099 E.03516
G1 X129.047 Y95.902 E.16138
G1 X128.373 Y96.028 E.03461
G1 X128.373 Y98.97 E.14851
G1 X127.796 Y98.559 E.03576
G1 X127.698 Y98.427 E.0083
G1 X127.698 Y96.147 E.11509
M204 S1000
;WIPE_START
G1 F8640
G1 X127.698 Y98.427 E-.52646
G1 X127.796 Y98.559 E-.03796
G1 X128.373 Y98.97 E-.16357
G1 X128.373 Y97.792 E-.27201
;WIPE_END
G1 Z.4 F720
G1 X125.07 Y103.565 F10800
G1 Z.2 F720
G1 E1 F1500
M204 S800
;TYPE:Perimeter
;WIDTH:0.649999
G1 F1200
G1 X125.29 Y103.365 E.01501
G1 X125.65 Y103.19 E.02021
G1 X126.13 Y103.112 E.02455
G1 X127.044 Y103.112 E.04614
;WIDTH:0.665383
G1 X127.403 Y103.104 E.01859
;WIDTH:0.708494
G1 X127.54 Y103.083 E.00767
;WIDTH:0.751605
G1 X127.677 Y103.061 E.00818
;WIDTH:0.794716
G1 X127.813 Y103.039 E.00861
;WIDTH:0.837826
G1 X127.95 Y103.018 E.00916
G1 X128.395 Y103.031 E.02943
;WIDTH:0.812038
G1 X128.84 Y103.044 E.02847
;WIDTH:0.808862
G1 X129.708 Y103.032 E.05529
G1 X129.93 Y103.052 E.0142
;WIDTH:0.769147
G1 X130.152 Y103.072 E.01346
;WIDTH:0.729431
G1 X130.374 Y103.092 E.01272
;WIDTH:0.689715
G1 X130.597 Y103.112 E.01204
;WIDTH:0.649999
G1 X131.87 Y103.112 E.06426
G1 X132.35 Y103.19 E.02455
G1 X132.71 Y103.365 E.02021
G1 X132.925 Y103.538 E.01393
G1 X133.163 Y103.835 E.01921
G1 X133.329 Y104.209 E.02066
G1 X133.388 Y104.63 E.02146
G1 X133.388 Y110.372 E.28985
G1 X133.352 Y110.7 E.01666
G1 X133.212 Y111.082 E.02054
G1 X132.92 Y111.469 E.02447
;WIDTH:0.695855
G1 X132.465 Y111.794 E.03036
;WIDTH:0.733512
G1 X132.386 Y111.836 E.00514
;WIDTH:0.771168
G1 X132.307 Y111.879 E.00545
;WIDTH:0.808825
G1 X132.228 Y111.922 E.00573
;WIDTH:0.846481
G1 X132.15 Y111.964 E.00592
G1 X131.87 Y111.981 E.01874
;WIDTH:0.831313
G1 X126.13 Y111.981 E.37629
G1 X125.984 Y111.929 E.01016
;WIDTH:0.785985
G1 X125.838 Y111.877 E.00958
;WIDTH:0.740656
G1 X125.692 Y111.825 E.00899
;WIDTH:0.695328
G1 X125.546 Y111.773 E.00841
;WIDTH:0.649999
G1 X125.083 Y111.471 E.0279
G1 X124.79 Y111.087 E.02438
G1 X124.649 Y110.706 E.02051
G1 X124.612 Y110.372 E.01696
G1 X124.612 Y104.63 E.28985
G1 X124.675 Y104.196 E.02214
G1 X124.734 Y104.033 E.00875
G1 X124.953 Y103.671 E.02136
G1 X125.003 Y103.625 E.00343
M204 S1000
G1 X125.003 Y103.625 F10800
G1 X125.481 Y104.002
M204 S800
G1 F1200
G1 X125.506 Y103.966 E.00221
G1 X125.772 Y103.792 E.01604
G1 X126.13 Y103.719 E.01844
G1 X131.877 Y103.719 E.2901
G1 X132.228 Y103.792 E.0181
G1 X132.503 Y103.975 E.01667
G1 X132.646 Y104.153 E.01153
G1 X132.745 Y104.377 E.01236
G1 X132.781 Y104.63 E.0129
G1 X132.781 Y110.372 E.28985
G1 X132.76 Y110.569 E.01
G1 X132.675 Y110.798 E.01233
G1 X132.5 Y111.03 E.01467
G1 X132.222 Y111.213 E.0168
G1 X131.87 Y111.283 E.01812
G1 X126.13 Y111.283 E.28975
G1 X125.779 Y111.213 E.01807
G1 X125.502 Y111.032 E.0167
G1 X125.326 Y110.801 E.01466
G1 X125.241 Y110.572 E.01233
G1 X125.219 Y110.372 E.01016
G1 X125.219 Y104.63 E.28985
G1 X125.292 Y104.272 E.01844
G1 X125.429 Y104.076 E.01207
M204 S1000
G1 X125.429 Y104.076 F10800
G1 X125.918 Y104.429
M204 S800
;TYPE:External perimeter
G1 F1200
G1 X125.962 Y104.377 E.00344
G1 X126.13 Y104.326 E.00886
G1 X131.873 Y104.326 E.2899
G1 X132.061 Y104.393 E.01007
G1 X132.162 Y104.545 E.00921
G1 X132.174 Y104.63 E.00433
G1 X132.174 Y110.372 E.28985
G1 X132.139 Y110.514 E.00738
G1 X131.988 Y110.652 E.01033
G1 X131.87 Y110.676 E.00608
G1 X126.13 Y110.676 E.28975
G1 X125.92 Y110.592 E.01142
G1 X125.833 Y110.439 E.00888
G1 X125.826 Y110.372 E.0034
G1 X125.826 Y104.63 E.28985
G1 X125.85 Y104.51 E.00618
G1 X125.861 Y104.498 E.00082
M204 S1000
;WIPE_START
G1 F8640
G1 X125.918 Y104.429 E-.02067
G1 X125.962 Y104.377 E-.01573
G1 X126.13 Y104.326 E-.04054
G1 X130.127 Y104.326 E-.92306
;WIPE_END
G1 Z.4 F720
G1 X130.037 Y101.484 F10800
G1 Z.2 F720
G1 E1 F1500
M204 S800
;TYPE:Perimeter
G1 F1200
G1 X129.774 Y101.557 E.01378
G1 X129.076 Y101.629 E.03542
G1 X128.381 Y101.584 E.03516
G1 X127.698 Y101.42 E.03546
G1 X127.053 Y101.143 E.03543
G1 X126.467 Y100.763 E.03526
G1 X125.949 Y100.284 E.03561
G1 X125.524 Y99.731 E.03521
G1 X125.197 Y99.11 E.03543
G1 X124.979 Y98.445 E.03533
G1 X124.878 Y97.751 E.0354
G1 X124.895 Y97.052 E.0353
G1 X125.028 Y96.367 E.03522
G1 X125.278 Y95.708 E.03558
G1 X125.637 Y95.105 E.03542
G1 X126.086 Y94.573 E.03514
G1 X126.627 Y94.121 E.03559
G1 X127.229 Y93.77 E.03518
G1 X127.882 Y93.524 E.03522
G1 X128.572 Y93.392 E.03546
G1 X129.274 Y93.379 E.03544
G1 X129.967 Y93.484 E.03538
G1 X130.632 Y93.707 E.03541
G1 X131.247 Y94.036 E.03521
G1 X131.799 Y94.462 E.0352
G1 X132.275 Y94.985 E.0357
G1 X132.651 Y95.568 E.03502
G1 X132.926 Y96.216 E.03553
G1 X133.086 Y96.901 E.03551
G1 X133.129 Y97.597 E.0352
G1 X133.054 Y98.293 E.03534
G1 X132.86 Y98.969 E.0355
G1 X132.558 Y99.598 E.03522
G1 X132.185 Y100.125 E.03259
G1 X131.656 Y100.664 E.03812
G1 X131.08 Y101.069 E.03554
G1 X130.449 Y101.368 E.03525
G1 X130.123 Y101.459 E.01709
M204 S1000
G1 X130.123 Y101.459 F10800
G1 X129.885 Y100.899
M204 S800
;TYPE:External perimeter
G1 F1200
G1 X129.621 Y100.97 E.0138
G1 X129.026 Y101.024 E.03016
G1 X128.431 Y100.979 E.03012
G1 X127.85 Y100.832 E.03025
G1 X127.304 Y100.59 E.03015
G1 X126.806 Y100.26 E.03016
G1 X126.37 Y99.846 E.03035
G1 X126.012 Y99.37 E.03007
G1 X125.74 Y98.838 E.03016
G1 X125.56 Y98.267 E.03022
G1 X125.48 Y97.674 E.03021
G1 X125.501 Y97.078 E.0301
G1 X125.622 Y96.493 E.03016
G1 X125.841 Y95.935 E.03026
G1 X126.152 Y95.425 E.03015
G1 X126.543 Y94.973 E.03017
G1 X127.007 Y94.594 E.03024
G1 X127.525 Y94.3 E.03007
G1 X128.085 Y94.096 E.03009
G1 X128.675 Y93.99 E.03026
G1 X129.274 Y93.986 E.03024
G1 X129.864 Y94.083 E.03018
G1 X130.428 Y94.279 E.03014
G1 X130.951 Y94.566 E.03011
G1 X131.419 Y94.936 E.03012
M73 Q2 S20
G1 X131.818 Y95.385 E.03032
G1 X132.135 Y95.889 E.03006
G1 X132.363 Y96.443 E.03024
G1 X132.492 Y97.028 E.03024
G1 X132.522 Y97.623 E.03007
G1 X132.451 Y98.216 E.03015
G1 X132.279 Y98.791 E.0303
G1 X132.016 Y99.326 E.03009
G1 X131.697 Y99.764 E.02735
M73 P2 R20
G1 X131.235 Y100.227 E.03302
G1 X130.741 Y100.565 E.03021
G1 X130.198 Y100.815 E.03018
G1 X129.972 Y100.876 E.01182
M204 S1000
;WIPE_START
G1 F8640
G1 X129.885 Y100.899 E-.02078
G1 X129.621 Y100.97 E-.06312
G1 X129.026 Y101.024 E-.13795
G1 X128.431 Y100.979 E-.13778
G1 X127.85 Y100.832 E-.13838
G1 X127.304 Y100.59 E-.1379
G1 X126.806 Y100.26 E-.13794
G1 X126.37 Y99.846 E-.13883
G1 X126.142 Y99.544 E-.08732
;WIPE_END
G1 Z.4 F720
G1 X130.863 Y102.505 F10800
G1 Z.2 F720
G1 E1 F1500
M204 S800
;TYPE:Perimeter
G1 F1200
G1 X131.758 Y102.076 E.0501
G1 X132.498 Y101.539 E.04615
G1 X132.893 Y101.159 E.02767
G1 X133.16 Y100.848 E.02069
G1 X133.643 Y100.143 E.04314
G1 X134.02 Y99.326 E.04542
G1 X134.258 Y98.445 E.04607
G1 X134.342 Y97.544 E.04568
G1 X134.274 Y96.649 E.04531
G1 X134.053 Y95.763 E.04609
G1 X133.683 Y94.928 E.0461
G1 X133.189 Y94.186 E.045
G1 X132.828 Y93.773 E.02769
G1 X132.349 Y93.347 E.03236
G1 X136.255 Y93.347 E.19717
G1 X136.255 Y94.629 E.06471
G1 X136.255 Y112.253 E.88964
G1 X132.812 Y112.253 E.1738
G1 X133.34 Y111.907 E.03187
G1 X133.748 Y111.366 E.0342
G1 X133.945 Y110.832 E.02873
G1 X133.995 Y110.372 E.02336
G1 X133.995 Y104.63 E.28985
G1 X133.912 Y104.04 E.03008
G1 X133.681 Y103.517 E.02886
G1 X133.347 Y103.102 E.02689
G1 X133.046 Y102.86 E.0195
G1 X132.541 Y102.613 E.02838
G1 X131.87 Y102.505 E.03431
G1 X130.953 Y102.505 E.04629
M204 S1000
;WIPE_START
G1 F8640
G1 X130.863 Y102.505 E-.02078
G1 X131.758 Y102.076 E-.22917
G1 X132.498 Y101.539 E-.21112
G1 X132.893 Y101.159 E-.12656
G1 X133.16 Y100.848 E-.09464
G1 X133.643 Y100.143 E-.19733
G1 X133.862 Y99.67 E-.1204
;WIPE_END
G1 Z.4 F720
G1 X127.912 Y92.814 F10800
G1 Z.2 F720
G1 E1 F1500
M204 S800
;WIDTH:0.798028
G1 F1200
G1 X128.189 Y92.791 E.01745
;WIDTH:0.750946
G1 X128.465 Y92.767 E.01631
;WIDTH:0.703864
G1 X129.274 Y92.756 E.04446
;WIDTH:0.720104
G1 X129.543 Y92.775 E.01518
;WIDTH:0.758521
G1 X129.813 Y92.794 E.01611
;WIDTH:0.796938
G1 X130.082 Y92.814 E.01691
M204 S1000
;WIPE_START
G1 F8640
G1 X127.912 Y92.814 E-.50106
G1 X128.189 Y92.791 E-.06418
G1 X128.465 Y92.767 E-.06397
G1 X129.274 Y92.756 E-.18682
G1 X129.543 Y92.775 E-.06227
G1 X129.813 Y92.794 E-.0625
G1 X130.069 Y92.813 E-.0592
;WIPE_END
G1 Z.4 F720
G1 X127.137 Y102.505 F10800
G1 Z.2 F720
G1 E1 F1500
M204 S800
;WIDTH:0.649999
G1 F1200
G1 X126.13 Y102.505 E.05083
G1 X125.644 Y102.561 E.0247
G1 X125.294 Y102.676 E.0186
G1 X124.799 Y102.973 E.02914
G1 X124.482 Y103.288 E.02256
G1 X124.194 Y103.753 E.02761
G1 X124.045 Y104.22 E.02474
G1 X124.005 Y104.63 E.02079
G1 X124.005 Y110.372 E.28985
G1 X124.057 Y110.839 E.02372
G1 X124.255 Y111.372 E.0287
G1 X124.664 Y111.911 E.03415
G1 X125.188 Y112.253 E.03159
G1 X113.745 Y112.253 E.57763
G1 X113.745 Y93.347 E.95435
G1 X125.651 Y93.347 E.601
G1 X125.172 Y93.773 E.03236
G1 X124.605 Y94.465 E.04516
G1 X124.152 Y95.255 E.04597
G1 X123.84 Y96.114 E.04613
G1 X123.682 Y96.999 E.04538
G1 X123.673 Y97.904 E.04569
G1 X123.819 Y98.802 E.04593
G1 X124.112 Y99.655 E.04553
G1 X124.548 Y100.454 E.04595
G1 X125.107 Y101.159 E.04542
G1 X125.789 Y101.771 E.04626
G1 X126.553 Y102.249 E.04549
G1 X127.055 Y102.469 E.02767
M204 S1000
;WIPE_START
G1 F8640
G1 X127.137 Y102.505 E-.02068
G1 X126.13 Y102.505 E-.23252
G1 X125.644 Y102.561 E-.11296
G1 X125.294 Y102.676 E-.08507
G1 X124.799 Y102.973 E-.13329
G1 X124.482 Y103.288 E-.10319
G1 X124.194 Y103.753 E-.1263
G1 X124.045 Y104.22 E-.11319
G1 X124.014 Y104.533 E-.0728
;WIPE_END
G1 Z.4 F720
G1 X136.862 Y92.74 F10800
G1 Z.2 F720
G1 E1 F1500
M204 S800
G1 F1200
G1 X136.862 Y94.629 E.09535
G1 X136.862 Y112.86 E.92028
G1 X133.478 Y112.86 E.17082
;WIDTH:0.695855
G1 X132.674 Y112.837 E.04367
;WIDTH:0.733512
G1 X132.561 Y112.818 E.00658
;WIDTH:0.771168
G1 X132.447 Y112.799 E.007
;WIDTH:0.808825
G1 X132.333 Y112.78 E.00736
;WIDTH:0.846481
G1 X132.219 Y112.762 E.00771
G1 X131.87 Y112.769 E.02332
;WIDTH:0.831313
G1 X126.13 Y112.769 E.37629
G1 X125.929 Y112.792 E.01326
;WIDTH:0.785985
G1 X125.729 Y112.815 E.01244
;WIDTH:0.740656
G1 X125.529 Y112.837 E.01167
;WIDTH:0.695328
G1 X125.329 Y112.86 E.01092
;WIDTH:0.649999
G1 X113.138 Y112.86 E.61539
G1 X113.138 Y92.74 E1.01563
G1 X127.097 Y92.74 E.70463
;WIDTH:0.699342
G1 X127.368 Y92.765 E.01485
;WIDTH:0.748685
G1 X127.64 Y92.79 E.01603
;WIDTH:0.798028
G1 X127.912 Y92.814 E.01714
G1 X127.788 Y92.864 E.00839
;WIDTH:0.76443
G1 X127.665 Y92.914 E.00797
;WIDTH:0.730832
G1 X127.299 Y93.077 E.02292
;WIDTH:0.690416
G1 X126.933 Y93.24 E.02157
;WIDTH:0.649999
G1 X126.247 Y93.647 E.04026
G1 X125.629 Y94.173 E.04097
M73 Q3 S20
G1 X125.121 Y94.785 E.04015
G1 X124.715 Y95.482 E.04072
G1 X124.434 Y96.24 E.04081
G1 X124.288 Y97.025 E.04031
G1 X124.275 Y97.827 E.04049
G1 X124.399 Y98.624 E.04072
M73 P3 R20
G1 X124.654 Y99.383 E.04042
G1 X125.036 Y100.092 E.04065
G1 X125.528 Y100.721 E.04031
G1 X126.128 Y101.267 E.04095
G1 X126.803 Y101.696 E.04037
;WIDTH:0.665383
G1 X127.543 Y102.015 E.04171
;WIDTH:0.708494
G1 X127.67 Y102.07 E.00766
;WIDTH:0.751605
G1 X127.796 Y102.125 E.0081
;WIDTH:0.794716
G1 X127.923 Y102.181 E.00868
;WIDTH:0.837826
G1 X128.05 Y102.236 E.00915
G1 X128.324 Y102.268 E.01823
;WIDTH:0.808862
G1 X129.132 Y102.302 E.05151
G1 X129.676 Y102.268 E.03471
G1 X129.942 Y102.205 E.01741
;WIDTH:0.774241
G1 X130.194 Y102.11 E.01638
;WIDTH:0.732827
G1 X130.447 Y102.016 E.01548
;WIDTH:0.691413
G1 X130.699 Y101.921 E.01452
;WIDTH:0.649999
G1 X131.419 Y101.572 E.04039
G1 X132.077 Y101.102 E.04082
G1 X132.673 Y100.486 E.04327
G1 X133.101 Y99.871 E.03782
G1 X133.44 Y99.148 E.04031
G1 X133.656 Y98.369 E.04081
G1 X133.735 Y97.571 E.04048
G1 X133.68 Y96.775 E.04028
G1 X133.49 Y95.989 E.04082
G1 X133.167 Y95.248 E.0408
G1 X132.732 Y94.585 E.04003
G1 X132.179 Y93.989 E.04104
G1 X131.543 Y93.506 E.04031
G1 X130.835 Y93.135 E.04035
;WIDTH:0.698979
G1 X130.584 Y93.028 E.01488
;WIDTH:0.747959
G1 X130.333 Y92.921 E.016
;WIDTH:0.796938
G1 X130.082 Y92.814 E.01711
G1 X130.22 Y92.797 E.00872
;WIDTH:0.762809
G1 X130.358 Y92.779 E.00833
;WIDTH:0.728679
G1 X130.631 Y92.76 E.0156
;WIDTH:0.689339
G1 X130.903 Y92.74 E.01466
;WIDTH:0.649999
G1 X136.772 Y92.74 E.29626
M204 S1000
G1 X136.772 Y92.74 F10800
G1 X137.469 Y92.133
M204 S800
G1 F1200
G1 X137.469 Y94.629 E.126
G1 X137.469 Y113.467 E.95092
G1 X112.531 Y113.467 E1.25884
M73 P3 R19
G1 X112.531 Y92.133 E1.07692
G1 X137.379 Y92.133 E1.2543
M204 S1000
