; generated by PrusaSlicer 2.9.0 on 2025-02-13 at 00:43:57 UTC


;
;
; 

; external perimeters extrusion width = 0.65mm
; perimeters extrusion width = 0.65mm
; infill extrusion width = 0.65mm
; solid infill extrusion width = 0.65mm
; top infill extrusion width = 0.60mm
; support material extrusion width = 0.55mm
; first layer extrusion width = 0.65mm

M73 P0 R22
M73 C11
M73 Q0 S22
M73 D11
M201 X1000 Y1000 Z200 E5000 ; sets maximum accelerations, mm/sec^2
M203 X200 Y200 Z12 E120 ; sets maximum feedrates, mm / sec
M204 S1250 T1250 ; sets acceleration (S) and retract acceleration (R), mm/sec^2
M205 X8.00 Y8.00 Z0.40 E4.50 ; sets the jerk limits, mm/sec
M205 S0 T0 ; sets the minimum extruding and travel feed rate, mm/sec

; printing object Cover-Nut_Sunk.STL id:0 copy 0
; stop printing object Cover-Nut_Sunk.STL id:0 copy 0

;TYPE:Custom
M862.3 P "MK3S" ; printer model check
M862.1 P0.6 ; nozzle diameter check
M115 U3.14.1 ; tell printer latest fw version
G90 ; use absolute coordinates
M83 ; extruder relative mode
M104 S230 ; set extruder temp
M140 S85 ; set bed temp
M190 S85 ; wait for bed temp
M109 S230 ; wait for extruder temp
G28 W ; home all without mesh bed level
G80 X108.243 Y88.3939 W33.5142 H29.3623 ; mesh bed levelling

G1 Z0.2 F720
G1 Y-3 F1000 ; go outside print area
G92 E0
G1 X60 E9 F1000 ; intro line
G1 X100 E12.5 F1000 ; intro line

G92 E0
M221 S95
G21 ; set units to millimeters
G90 ; use absolute coordinates
M83 ; use relative distances for extrusion

M900 K0.04 ; Filament gcode LA 1.5
M900 K24 ; Filament gcode LA 1.0




M107
;LAYER_CHANGE
;Z:0.2
;HEIGHT:0.2
G1 E-1 F2100
G1 Z.4 F720
G1 X108.938 Y89.716 F10800
G1 Z.2 F720
G1 E1 F1500
M204 S800
;TYPE:Skirt/Brim
;WIDTH:0.65
G1 F1200
G1 X109.979 Y88.869 E.06775
G1 X110.85 Y88.697 E.04482
G1 X139.15 Y88.697 E1.42855
G1 X140.434 Y89.089 E.06777
G1 X141.282 Y90.13 E.06778
G1 X141.454 Y91.001 E.04482
G1 X141.454 Y114.741 E1.19837
G1 X140.777 Y116.371 E.0891
G1 X140.369 Y116.778 E.02909
G1 X138.743 Y117.452 E.08885
G1 X110.85 Y117.452 E1.40801
G1 X109.565 Y117.06 E.06782
G1 X108.718 Y116.019 E.06775
G1 X108.547 Y115.149 E.04476
G1 X108.547 Y91.001 E1.21896
G1 X108.912 Y89.803 E.06322
M204 S1000
;WIPE_START
G1 F8640
G1 X108.938 Y89.716 E-.02097
G1 X109.979 Y88.869 E-.30988
G1 X110.85 Y88.697 E-.205
G1 X112.86 Y88.697 E-.46415
;WIPE_END
G1 Z.4 F720
M73 Q1 S22
; printing object Cover-Nut_Sunk.STL id:0 copy 0
G1 X129.543 Y95.418 F10800
G1 Z.2 F720
M73 P1 R22
G1 E1 F1500
M204 S800
;TYPE:Support material
G1 F1200
G1 X129.885 Y95.539 E.01831
G1 X130.488 Y95.945 E.0367
G1 X130.922 Y96.532 E.03685
G1 X131.134 Y97.226 E.03663
G1 X131.104 Y97.952 E.03668
G1 X130.833 Y98.629 E.03681
G1 X130.352 Y99.175 E.03673
G1 X129.716 Y99.529 E.03674
G1 X129.365 Y99.621 E.01832
G1 X128.635 Y99.621 E.03685
G1 X128.284 Y99.529 E.01832
G1 X127.648 Y99.175 E.03674
G1 X127.167 Y98.629 E.03673
G1 X126.896 Y97.952 E.03681
G1 X126.866 Y97.226 E.03668
G1 X127.078 Y96.532 E.03663
G1 X127.512 Y95.945 E.03685
G1 X127.795 Y95.718 E.01831
G1 X128.458 Y95.418 E.03673
G1 X128.817 Y95.356 E.01839
G1 X129.453 Y95.402 E.03219
M204 S1000
G1 X129.453 Y95.402 F10800
G1 X130.396 Y98.754
M204 S800
G1 F1200
G1 X130.396 Y96.721 E.10262
G1 X130.108 Y96.341 E.02407
G1 X129.722 Y96.074 E.02369
G1 X129.722 Y98.927 E.14402
G1 X129.047 Y99.099 E.03516
G1 X129.047 Y95.902 E.16138
G1 X128.373 Y96.028 E.03461
G1 X128.373 Y98.97 E.14851
G1 X127.796 Y98.559 E.03576
G1 X127.698 Y98.427 E.0083
G1 X127.698 Y96.147 E.11509
M204 S1000
;WIPE_START
G1 F8640
G1 X127.698 Y98.427 E-.52646
G1 X127.796 Y98.559 E-.03796
G1 X128.373 Y98.97 E-.16357
G1 X128.373 Y97.792 E-.27201
;WIPE_END
G1 Z.4 F720
G1 X129.354 Y103.383 F10800
G1 Z.2 F720
G1 E1 F1500
M204 S800
;TYPE:Perimeter
;WIDTH:0.649999
G1 F1200
G1 X129.925 Y103.459 E.02908
G1 X130.543 Y103.654 E.03271
G1 X131.118 Y103.944 E.03251
G1 X131.423 Y104.137 E.01822
G1 X131.87 Y104.503 E.02916
G1 X132.255 Y104.931 E.02906
G1 X132.644 Y105.523 E.03576
G1 X132.924 Y106.16 E.03512
G1 X133.094 Y106.848 E.03577
G1 X133.146 Y107.546 E.03533
G1 X133.078 Y108.247 E.03555
G1 X132.892 Y108.928 E.03564
G1 X132.598 Y109.562 E.03528
G1 X132.193 Y110.144 E.03579
G1 X131.704 Y110.642 E.03523
G1 X131.136 Y111.054 E.03542
G1 X130.501 Y111.365 E.03569
G1 X129.825 Y111.563 E.03556
G1 X129.131 Y111.644 E.03527
G1 X128.426 Y111.606 E.03564
G1 X127.742 Y111.451 E.0354
G1 X127.092 Y111.181 E.03553
G1 X126.495 Y110.804 E.03564
G1 X125.973 Y110.332 E.03552
G1 X125.541 Y109.786 E.03515
G1 X125.402 Y109.562 E.01331
G1 X125.108 Y108.928 E.03528
G1 X124.922 Y108.247 E.03564
G1 X124.854 Y107.548 E.03545
G1 X124.884 Y106.973 E.02906
G1 X124.999 Y106.411 E.02896
G1 X125.243 Y105.748 E.03566
G1 X125.564 Y105.183 E.0328
G1 X126.041 Y104.596 E.03818
G1 X126.577 Y104.137 E.03562
G1 X127.131 Y103.802 E.03268
G1 X127.625 Y103.599 E.02696
G1 X128.074 Y103.459 E.02374
G1 X128.638 Y103.366 E.02885
G1 X129.173 Y103.359 E.02701
G1 X129.265 Y103.372 E.00469
M204 S1000
G1 X129.265 Y103.372 F10800
G1 X129.302 Y103.984
M204 S800
G1 F1200
G1 X129.821 Y104.057 E.02646
G1 X130.341 Y104.227 E.02762
G1 X130.83 Y104.478 E.02775
G1 X131.361 Y104.865 E.03317
G1 X131.8 Y105.333 E.03239
G1 X132.126 Y105.84 E.03043
G1 X132.361 Y106.388 E.0301
G1 X132.501 Y106.975 E.03046
G1 X132.539 Y107.572 E.0302
G1 X132.476 Y108.171 E.0304
G1 X132.312 Y108.749 E.03033
G1 X132.055 Y109.289 E.03019
G1 X131.706 Y109.782 E.03049
G1 X131.284 Y110.205 E.03016
G1 X130.795 Y110.552 E.03027
G1 X130.252 Y110.811 E.03037
G1 X129.673 Y110.975 E.03038
G1 X129.08 Y111.039 E.03011
G1 X128.478 Y111.001 E.03045
G1 X127.894 Y110.863 E.03029
G1 X127.342 Y110.628 E.03028
G1 X126.836 Y110.301 E.03041
G1 X126.394 Y109.895 E.0303
G1 X126.028 Y109.423 E.03015
G1 X125.945 Y109.289 E.00796
G1 X125.688 Y108.749 E.03019
G1 X125.524 Y108.17 E.03038
G1 X125.461 Y107.573 E.0303
G1 X125.486 Y107.05 E.02643
G1 X125.593 Y106.538 E.0264
G1 X125.805 Y105.975 E.03037
G1 X126.082 Y105.501 E.02771
G1 X126.496 Y104.997 E.03292
G1 X126.957 Y104.61 E.03038
G1 X127.429 Y104.331 E.02768
G1 X128.02 Y104.1 E.03203
G1 X128.619 Y103.98 E.03084
G1 X129.173 Y103.966 E.02797
G1 X129.213 Y103.972 E.00204
M204 S1000
G1 X129.213 Y103.972 F10800
G1 X129.25 Y104.585
M204 S800
;TYPE:External perimeter
G1 F1200
G1 X129.716 Y104.655 E.02379
G1 X130.183 Y104.819 E.02498
G1 X130.636 Y105.064 E.026
G1 X131.031 Y105.38 E.02553
G1 X131.376 Y105.776 E.02651
G1 X131.631 Y106.202 E.02506
G1 X131.813 Y106.665 E.02511
G1 X131.914 Y107.153 E.02516
G1 X131.93 Y107.649 E.02505
G1 X131.863 Y108.145 E.02526
G1 X131.713 Y108.618 E.02505
G1 X131.485 Y109.061 E.02515
G1 X131.185 Y109.457 E.02508
G1 X130.823 Y109.799 E.02514
G1 X130.409 Y110.075 E.02512
G1 X129.954 Y110.275 E.02509
G1 X129.47 Y110.396 E.02518
G1 X128.976 Y110.434 E.02501
G1 X128.479 Y110.387 E.0252
G1 X127.998 Y110.258 E.02514
G1 X127.546 Y110.049 E.02514
G1 X127.137 Y109.767 E.02508
G1 X126.781 Y109.419 E.02513
G1 X126.487 Y109.016 E.02518
G1 X126.268 Y108.571 E.02504
G1 X126.126 Y108.093 E.02517
G1 X126.067 Y107.599 E.02511
G1 X126.093 Y107.102 E.02512
G1 X126.202 Y106.615 E.02519
G1 X126.391 Y106.157 E.02501
G1 X126.656 Y105.734 E.0252
G1 X127.019 Y105.339 E.02708
G1 X127.494 Y104.991 E.02972
G1 X128.046 Y104.738 E.03065
G1 X128.595 Y104.601 E.02856
G1 X129.16 Y104.574 E.02855
M204 S1000
;WIPE_START
G1 F8640
G1 X129.25 Y104.585 E-.02094
G1 X129.716 Y104.655 E-.10881
G1 X130.183 Y104.819 E-.11429
G1 X130.636 Y105.064 E-.11892
G1 X131.031 Y105.38 E-.1168
G1 X131.376 Y105.776 E-.12127
G1 X131.631 Y106.202 E-.11464
G1 X131.813 Y106.665 E-.11487
G1 X131.914 Y107.153 E-.11507
G1 X131.922 Y107.389 E-.05439
;WIPE_END
G1 Z.4 F720
G1 X126.147 Y94.521 F10800
G1 Z.2 F720
G1 E1 F1500
M204 S800
;TYPE:Perimeter
G1 F1200
G1 X126.627 Y94.121 E.03154
G1 X127.229 Y93.77 E.03518
G1 X127.882 Y93.524 E.03522
G1 X128.572 Y93.392 E.03546
G1 X129.274 Y93.379 E.03544
G1 X129.967 Y93.484 E.03538
G1 X130.632 Y93.707 E.03541
G1 X131.247 Y94.036 E.03521
G1 X131.799 Y94.462 E.0352
G1 X132.275 Y94.985 E.0357
G1 X132.651 Y95.568 E.03502
G1 X132.926 Y96.216 E.03553
G1 X133.086 Y96.901 E.03551
G1 X133.129 Y97.597 E.0352
G1 X133.054 Y98.293 E.03534
G1 X132.86 Y98.969 E.0355
G1 X132.558 Y99.598 E.03522
G1 X132.152 Y100.169 E.03537
G1 X131.683 Y100.638 E.03348
G1 X131.195 Y100.991 E.0304
G1 X130.576 Y101.31 E.03515
G1 X130.075 Y101.479 E.02669
G1 X129.489 Y101.594 E.03014
G1 X128.926 Y101.629 E.02847
G1 X128.381 Y101.584 E.0276
G1 X127.888 Y101.469 E.02555
G1 X127.551 Y101.368 E.01776
G1 X127.053 Y101.143 E.02759
G1 X126.467 Y100.763 E.03526
G1 X125.994 Y100.328 E.03244
G1 X125.611 Y99.849 E.03096
G1 X125.442 Y99.598 E.01527
G1 X125.197 Y99.11 E.02756
G1 X124.979 Y98.445 E.03533
G1 X124.878 Y97.751 E.0354
G1 X124.895 Y97.052 E.0353
G1 X125.028 Y96.367 E.03522
G1 X125.278 Y95.708 E.03558
G1 X125.637 Y95.105 E.03542
G1 X126.079 Y94.58 E.03464
M204 S1000
G1 X126.079 Y94.58 F10800
G1 X126.563 Y94.956
M204 S800
;TYPE:External perimeter
G1 F1200
G1 X127.007 Y94.594 E.02892
G1 X127.525 Y94.3 E.03007
G1 X128.085 Y94.096 E.03009
G1 X128.675 Y93.99 E.03026
G1 X129.274 Y93.986 E.03024
G1 X129.864 Y94.083 E.03018
G1 X130.428 Y94.279 E.03014
G1 X130.951 Y94.566 E.03011
G1 X131.419 Y94.936 E.03012
G1 X131.818 Y95.385 E.03032
G1 X132.135 Y95.889 E.03006
G1 X132.363 Y96.443 E.03024
G1 X132.492 Y97.028 E.03024
G1 X132.522 Y97.623 E.03007
G1 X132.451 Y98.216 E.03015
G1 X132.279 Y98.791 E.0303
G1 X132.016 Y99.326 E.03009
G1 X131.664 Y99.808 E.03013
G1 X131.262 Y100.2 E.02834
G1 X130.741 Y100.565 E.03211
G1 X130.198 Y100.815 E.03018
G1 X129.621 Y100.97 E.03016
G1 X129.077 Y101.02 E.02758
G1 X128.56 Y100.989 E.02614
G1 X128.041 Y100.882 E.02675
G1 X127.546 Y100.699 E.02664
G1 X127.144 Y100.487 E.02294
G1 X126.738 Y100.2 E.0251
G1 X126.37 Y99.846 E.02578
G1 X126.012 Y99.37 E.03007
G1 X125.74 Y98.838 E.03016
G1 X125.56 Y98.267 E.03022
G1 X125.48 Y97.674 E.03021
G1 X125.501 Y97.078 E.0301
G1 X125.621 Y96.493 E.03014
G1 X125.841 Y95.935 E.03028
G1 X126.152 Y95.425 E.03015
G1 X126.501 Y95.02 E.02699
M204 S1000
;WIPE_START
G1 F8640
G1 X126.563 Y94.956 E-.02057
G1 X127.007 Y94.594 E-.13228
G1 X127.525 Y94.3 E-.13753
G1 X128.085 Y94.096 E-.13762
G1 X128.675 Y93.99 E-.13841
G1 X129.274 Y93.986 E-.13831
G1 X129.864 Y94.083 E-.13806
G1 X130.428 Y94.279 E-.13787
G1 X130.501 Y94.319 E-.01935
;WIPE_END
G1 Z.4 F720
G1 X129.589 Y102.794 F10800
G1 Z.2 F720
G1 E1 F1500
M204 S800
;TYPE:Perimeter
;WIDTH:0.646881
G1 F1200
G1 X130.079 Y102.731 E.02481
;WIDTH:0.649999
G1 X130.608 Y102.595 E.02757
G1 X131.077 Y102.417 E.02532
G1 X131.758 Y102.076 E.03844
G1 X132.23 Y101.758 E.02873
G1 X132.653 Y101.389 E.02834
G1 X133.128 Y100.892 E.0347
G1 X133.643 Y100.143 E.04588
G1 X134.02 Y99.326 E.04542
G1 X134.258 Y98.445 E.04607
G1 X134.342 Y97.544 E.04568
G1 X134.274 Y96.649 E.04531
G1 X134.053 Y95.763 E.04609
G1 X133.683 Y94.928 E.0461
G1 X133.189 Y94.186 E.045
G1 X132.828 Y93.773 E.02769
G1 X132.349 Y93.347 E.03236
G1 X136.254 Y93.347 E.19712
G1 X136.254 Y94.628 E.06466
G1 X136.254 Y112.252 E.88964
G1 X130.438 Y112.252 E.29358
M73 P1 R21
M73 C10
;WIDTH:0.682884
G1 X130.128 Y112.235 E.01652
;WIDTH:0.715768
G1 X129.817 Y112.219 E.01742
G1 X129.984 Y112.173 E.00969
;WIDTH:0.696636
G1 X130.751 Y111.918 E.04394
;WIDTH:0.649999
G1 X131.477 Y111.556 E.04095
G1 X132.125 Y111.08 E.04059
G1 X132.68 Y110.506 E.0403
G1 X133.14 Y109.834 E.04111
G1 X133.473 Y109.106 E.04041
G1 X133.68 Y108.324 E.04083
G1 X133.754 Y107.611 E.03618
G1 X133.733 Y107.076 E.02703
G1 X133.594 Y106.283 E.04064
G1 X133.32 Y105.52 E.04092
G1 X132.929 Y104.825 E.04025
G1 X132.533 Y104.328 E.03208
G1 X132.121 Y103.918 E.02934
G1 X131.613 Y103.527 E.03236
G1 X131.049 Y103.216 E.03251
G1 X130.59 Y103.027 E.02506
G1 X130.083 Y102.873 E.02675
;WIDTH:0.646881
G1 X129.678 Y102.808 E.0206
M204 S1000
;WIPE_START
G1 F8640
G1 X129.589 Y102.794 E-.0208
G1 X130.079 Y102.731 E-.11407
G1 X130.608 Y102.595 E-.12612
G1 X131.077 Y102.417 E-.11583
G1 X131.758 Y102.076 E-.17586
G1 X132.23 Y101.758 E-.13141
G1 X132.653 Y101.389 E-.12961
G1 X133.128 Y100.892 E-.15874
G1 X133.196 Y100.794 E-.02756
;WIPE_END
G1 Z.4 F720
G1 X127.912 Y92.814 F10800
G1 Z.2 F720
G1 E1 F1500
M204 S800
;WIDTH:0.798028
G1 F1200
G1 X128.189 Y92.791 E.01745
;WIDTH:0.750945
G1 X128.465 Y92.767 E.01631
;WIDTH:0.703862
G1 X129.274 Y92.756 E.04446
;WIDTH:0.720102
G1 X129.543 Y92.775 E.01518
;WIDTH:0.758518
G1 X129.813 Y92.794 E.01611
;WIDTH:0.796934
G1 X130.082 Y92.814 E.01691
M204 S1000
;WIPE_START
G1 F8640
G1 X127.912 Y92.814 E-.50106
G1 X128.189 Y92.791 E-.06418
G1 X128.465 Y92.767 E-.06397
G1 X129.274 Y92.756 E-.18682
G1 X129.543 Y92.775 E-.06227
G1 X129.813 Y92.794 E-.0625
G1 X130.069 Y92.813 E-.0592
;WIPE_END
G1 Z.4 F720
G1 X113.746 Y93.347 F10800
G1 Z.2 F720
M73 D10
G1 E1 F1500
M204 S800
;WIDTH:0.649999
G1 F1200
G1 X125.651 Y93.347 E.60095
G1 X125.172 Y93.773 E.03236
M73 P2 R21
M73 Q2 S22
G1 X124.605 Y94.465 E.04516
G1 X124.152 Y95.255 E.04597
G1 X123.84 Y96.114 E.04613
G1 X123.682 Y96.999 E.04538
G1 X123.673 Y97.904 E.04569
G1 X123.819 Y98.802 E.04593
G1 X124.112 Y99.655 E.04553
G1 X124.548 Y100.454 E.04595
G1 X124.872 Y100.892 E.0275
G1 X125.153 Y101.203 E.02116
G1 X125.789 Y101.771 E.04304
G1 X126.242 Y102.076 E.02757
G1 X126.795 Y102.358 E.03133
G1 X127.392 Y102.595 E.03242
G1 X127.973 Y102.745 E.03029
G1 X128.279 Y102.768 E.01549
;WIDTH:0.621143
G1 X128.585 Y102.79 E.01475
;WIDTH:0.609016
G1 X128.413 Y102.804 E.00812
;WIDTH:0.649999
G1 X127.917 Y102.871 E.02526
G1 X127.414 Y103.03 E.02663
G1 X126.834 Y103.272 E.03172
G1 X126.197 Y103.663 E.03773
G1 X125.71 Y104.064 E.03184
G1 X125.29 Y104.53 E.03167
G1 X125.046 Y104.866 E.02096
G1 X124.68 Y105.52 E.03783
G1 X124.406 Y106.283 E.04092
G1 X124.282 Y106.897 E.03162
G1 X124.248 Y107.522 E.0316
G1 X124.319 Y108.323 E.04059
G1 X124.527 Y109.106 E.0409
G1 X124.86 Y109.834 E.04041
G1 X125.32 Y110.506 E.04111
G1 X125.875 Y111.08 E.0403
G1 X126.523 Y111.556 E.04059
G1 X127.249 Y111.918 E.04095
;WIDTH:0.684408
G1 X127.502 Y112.012 E.0144
;WIDTH:0.718817
G1 X127.755 Y112.106 E.01517
;WIDTH:0.753226
G1 X128.008 Y112.2 E.01594
G1 X127.731 Y112.217 E.01639
;WIDTH:0.718817
G1 X127.454 Y112.235 E.0156
;WIDTH:0.684408
G1 X127.177 Y112.252 E.0148
;WIDTH:0.649999
G1 X113.746 Y112.252 E.67798
G1 X113.746 Y93.437 E.94976
M204 S1000
;WIPE_START
G1 F8640
G1 X113.746 Y93.347 E-.02078
G1 X117.987 Y93.347 E-.97922
;WIPE_END
G1 Z.4 F720
G1 X129.817 Y112.219 F10800
G1 Z.2 F720
M73 Q2 S21
G1 E1 F1500
M204 S800
;WIDTH:0.715768
G1 F1200
G1 X129.5 Y112.235 E.01776
;WIDTH:0.684495
G1 X129.183 Y112.25 E.01693
;WIDTH:0.69125
G1 X128.373 Y112.231 E.04368
;WIDTH:0.722238
G1 X128.191 Y112.216 E.01032
;WIDTH:0.753226
G1 X128.008 Y112.2 E.01085
M204 S1000
;WIPE_START
G1 F8640
G1 X129.817 Y112.219 E-.41773
G1 X129.5 Y112.235 E-.07329
G1 X129.183 Y112.25 E-.07328
G1 X128.373 Y112.231 E-.18708
G1 X128.191 Y112.216 E-.04217
G1 X128.008 Y112.2 E-.04242
;WIPE_END
G1 E-.16403 F2100
G1 Z.4 F720
G1 X128.585 Y102.79 F10800
G1 Z.2 F720
G1 E1 F1500
M204 S800
;WIDTH:0.592286
G1 F1200
G1 X129.173 Y102.796 E.02686
;WIDTH:0.59651
G1 X129.381 Y102.795 E.00957
;WIDTH:0.629546
G1 X129.589 Y102.794 E.01015
M204 S1000
;WIPE_START
G1 F8640
G1 X128.585 Y102.79 E-.23183
G1 X129.173 Y102.796 E-.13578
G1 X129.381 Y102.795 E-.04803
G1 X129.589 Y102.794 E-.04803
;WIPE_END
G1 E-.53633 F2100
G1 Z.4 F720
G1 X113.139 Y92.74 F10800
G1 Z.2 F720
G1 E1 F1500
M204 S800
;WIDTH:0.649999
G1 F1200
G1 X127.097 Y92.74 E.70458
;WIDTH:0.699342
G1 X127.368 Y92.765 E.01485
;WIDTH:0.748685
G1 X127.64 Y92.79 E.01603
;WIDTH:0.798028
G1 X127.912 Y92.814 E.01714
G1 X127.788 Y92.864 E.00839
;WIDTH:0.76443
G1 X127.665 Y92.914 E.00797
;WIDTH:0.730832
G1 X127.299 Y93.077 E.02292
;WIDTH:0.690416
G1 X126.933 Y93.24 E.02157
;WIDTH:0.649999
G1 X126.247 Y93.647 E.04026
G1 X125.629 Y94.173 E.04097
G1 X125.121 Y94.785 E.04015
G1 X124.715 Y95.482 E.04072
G1 X124.434 Y96.24 E.04081
G1 X124.288 Y97.025 E.04031
G1 X124.275 Y97.827 E.04049
G1 X124.399 Y98.624 E.04072
G1 X124.654 Y99.383 E.04042
G1 X124.899 Y99.871 E.02756
G1 X125.123 Y100.21 E.02051
