; generated by PrusaSlicer 2.9.0 on 2025-02-14 at 22:22:36 UTC


;
;
; 

; external perimeters extrusion width = 0.65mm
; perimeters extrusion width = 0.65mm
; infill extrusion width = 0.65mm
; solid infill extrusion width = 0.65mm
; top infill extrusion width = 0.60mm
; support material extrusion width = 0.55mm
; first layer extrusion width = 0.65mm

M73 P0 R9
M73 Q0 S9
M201 X1000 Y1000 Z200 E5000 ; sets maximum accelerations, mm/sec^2
M203 X200 Y200 Z12 E120 ; sets maximum feedrates, mm / sec
M204 S1250 T1250 ; sets acceleration (S) and retract acceleration (R), mm/sec^2
M205 X8.00 Y8.00 Z0.40 E4.50 ; sets the jerk limits, mm/sec
M205 S0 T0 ; sets the minimum extruding and travel feed rate, mm/sec

; printing object Back Plate.STL id:0 copy 0
; stop printing object Back Plate.STL id:0 copy 0

;TYPE:Custom
M862.3 P "MK3S" ; printer model check
M862.1 P0.6 ; nozzle diameter check
M115 U3.14.1 ; tell printer latest fw version
G90 ; use absolute coordinates
M83 ; extruder relative mode
M104 S230 ; set extruder temp
M140 S85 ; set bed temp
M190 S85 ; wait for bed temp
M109 S230 ; wait for extruder temp
G28 W ; home all without mesh bed level
G80 X113.291 Y93.2983 W23.4189 H23.4034 ; mesh bed levelling

G1 Z0.2 F720
G1 Y-3 F1000 ; go outside print area
G92 E0
G1 X60 E9 F1000 ; intro line
G1 X100 E12.5 F1000 ; intro line

G92 E0
M221 S95
G21 ; set units to millimeters
G90 ; use absolute coordinates
M83 ; use relative distances for extrusion

M900 K0.04 ; Filament gcode LA 1.5
M900 K24 ; Filament gcode LA 1.0




M107
;LAYER_CHANGE
;Z:0.2
;HEIGHT:0.2
G1 E-1 F2100
M73 P1 R9
M73 Q1 S9
G1 Z.4 F720
G1 X116.611 Y97.27 F10800
G1 Z.2 F720
G1 E1 F1500
M204 S800
;TYPE:Skirt/Brim
;WIDTH:0.65
G1 F1200
G1 X117.496 Y96.409 E.06233
G1 X118.469 Y95.648 E.06235
G1 X119.281 Y95.139 E.04838
G1 X120.924 Y94.345 E.09211
G1 X122.1 Y93.967 E.06235
G1 X123.31 Y93.718 E.06236
G1 X124.54 Y93.602 E.06236
G1 X125.775 Y93.619 E.06235
G1 X127.9 Y93.967 E.1087
G1 X129.076 Y94.345 E.06235
G1 X130.204 Y94.849 E.06237
G1 X131.271 Y95.471 E.06234
G1 X132.264 Y96.204 E.0623
G1 X133.687 Y97.621 E.10137
G1 X134.855 Y99.254 E.10135
G1 X135.418 Y100.354 E.06238
G1 X135.86 Y101.507 E.06233
G1 X136.322 Y103.61 E.10869
G1 X136.406 Y104.842 E.06233
G1 X136.357 Y106.077 E.06239
G1 X136.106 Y107.606 E.07822
G1 X135.759 Y108.791 E.06233
G1 X135.286 Y109.932 E.06235
G1 X134.176 Y111.777 E.10869
G1 X133.389 Y112.73 E.06239
G1 X132.504 Y113.591 E.06233
G1 X131.532 Y114.352 E.06231
G1 X130.482 Y115.004 E.06239
G1 X129.076 Y115.655 E.07821
G1 X127.9 Y116.033 E.06235
G1 X126.69 Y116.282 E.06236
G1 X125.46 Y116.398 E.06236
G1 X124.225 Y116.381 E.06235
G1 X122.1 Y116.033 E.1087
G1 X120.924 Y115.655 E.06235
G1 X119.796 Y115.151 E.06237
G1 X118.729 Y114.529 E.06234
G1 X117.736 Y113.796 E.0623
G1 X116.827 Y112.959 E.06237
G1 X116.015 Y112.028 E.06236
G1 X115.145 Y110.746 E.07821
G1 X114.582 Y109.646 E.06238
G1 X114.14 Y108.493 E.06233
G1 X113.678 Y106.39 E.10869
G1 X113.594 Y105.158 E.06233
G1 X113.643 Y103.923 E.06239
G1 X113.826 Y102.702 E.06232
G1 X114.116 Y101.596 E.05772
G1 X114.714 Y100.068 E.08283
G1 X115.824 Y98.223 E.10869
G1 X116.553 Y97.34 E.0578
M204 S1000
G1 X116.553 Y97.34 F10800
G1 X117.018 Y97.743
M204 S800
G1 F1200
G1 X117.245 Y97.482 E.01746
G1 X118.103 Y96.688 E.05901
G1 X119.042 Y95.991 E.05903
G1 X120.051 Y95.4 E.05903
G1 X121.99 Y94.627 E.10537
G1 X123.376 Y94.322 E.07164
G1 X124.54 Y94.209 E.05903
G1 X125.709 Y94.222 E.05901
G1 X127.769 Y94.56 E.10538
G1 X128.882 Y94.921 E.05906
G1 X129.949 Y95.4 E.05904
G1 X130.958 Y95.991 E.05903
M73 Q2 S9
G1 X131.897 Y96.688 E.05903
G1 X133.225 Y98.014 E.09473
G1 X134.318 Y99.539 E.09471
G1 X134.854 Y100.578 E.05902
M73 P2 R9
G1 X135.275 Y101.67 E.05908
G1 X135.723 Y103.708 E.10533
G1 X135.8 Y104.875 E.05904
G1 X135.75 Y106.044 E.05906
G1 X135.574 Y107.2 E.05903
G1 X135.348 Y108.064 E.04508
G1 X134.75 Y109.648 E.08547
G1 X133.673 Y111.437 E.10541
G1 X132.927 Y112.337 E.05901
G1 X132.087 Y113.151 E.05905
G1 X131.164 Y113.869 E.05903
G1 X130.169 Y114.484 E.05905
G1 X128.882 Y115.079 E.07157
G1 X127.769 Y115.44 E.05906
G1 X126.624 Y115.678 E.05903
G1 X125.46 Y115.791 E.05903
G1 X124.291 Y115.778 E.05901
G1 X122.231 Y115.44 E.10538
G1 X121.118 Y115.079 E.05906
G1 X120.051 Y114.6 E.05904
G1 X119.042 Y114.009 E.05903
G1 X118.103 Y113.312 E.05903
G1 X117.245 Y112.518 E.05901
G1 X116.478 Y111.635 E.05904
G1 X115.682 Y110.461 E.0716
G1 X115.146 Y109.422 E.05902
G1 X114.725 Y108.33 E.05908
G1 X114.277 Y106.292 E.10533
G1 X114.2 Y105.125 E.05904
G1 X114.25 Y103.956 E.05906
G1 X114.426 Y102.8 E.05903
G1 X114.701 Y101.758 E.0544
G1 X115.25 Y100.352 E.07619
G1 X115.81 Y99.325 E.05905
G1 X116.478 Y98.365 E.05904
G1 X116.959 Y97.811 E.03704
M204 S1000
;WIPE_START
G1 F8640
G1 X117.018 Y97.743 E-.02079
G1 X117.245 Y97.482 E-.07987
G1 X118.103 Y96.688 E-.26993
G1 X119.042 Y95.991 E-.27002
G1 X120.051 Y95.4 E-.27
G1 X120.411 Y95.257 E-.08939
;WIPE_END
G1 Z.4 F720
; printing object Back Plate.STL id:0 copy 0
G1 X124.887 Y102.339 F10800
G1 Z.2 F720
G1 E1 F1500
M204 S800
;TYPE:Perimeter
;WIDTH:0.649999
G1 F1200
G1 X125.214 Y102.331 E.01651
G1 X125.711 Y102.415 E.02544
G1 X126.18 Y102.591 E.02529
G1 X126.655 Y102.892 E.02839
G1 X126.987 Y103.2 E.02286
G1 X127.261 Y103.56 E.02284
G1 X127.474 Y103.967 E.02319
G1 X127.613 Y104.4 E.02296
G1 X127.677 Y105 E.03046
G1 X127.613 Y105.6 E.03046
G1 X127.44 Y106.116 E.02747
G1 X127.179 Y106.56 E.026
G1 X126.713 Y107.053 E.03424
G1 X126.275 Y107.358 E.02694
G1 X125.81 Y107.558 E.02555
G1 X125.264 Y107.668 E.02812
G1 X124.809 Y107.674 E.02297
G1 X124.343 Y107.598 E.02383
G1 X123.929 Y107.458 E.02206
G1 X123.529 Y107.241 E.02297
G1 X123.172 Y106.96 E.02293
G1 X122.826 Y106.558 E.02677
G1 X122.523 Y106.014 E.03143
G1 X122.372 Y105.529 E.02564
G1 X122.317 Y105 E.02685
G1 X122.369 Y104.482 E.02628
G1 X122.499 Y104.034 E.02355
G1 X122.698 Y103.627 E.02287
G1 X123.047 Y103.169 E.02907
G1 X123.288 Y102.937 E.01689
G1 X123.703 Y102.656 E.0253
G1 X124.165 Y102.461 E.02531
G1 X124.694 Y102.344 E.02735
G1 X124.797 Y102.342 E.0052
M204 S1000
G1 X124.797 Y102.342 F10800
G1 X124.912 Y102.939
M204 S800
;TYPE:External perimeter
G1 F1200
G1 X125.289 Y102.945 E.01903
G1 X125.758 Y103.074 E.02455
G1 X126.213 Y103.317 E.02604
G1 X126.515 Y103.582 E.02028
G1 X126.732 Y103.856 E.01764
G1 X126.976 Y104.38 E.02918
G1 X127.069 Y104.85 E.02419
G1 X127.065 Y105.202 E.01777
G1 X126.976 Y105.62 E.02157
G1 X126.737 Y106.134 E.02861
G1 X126.274 Y106.634 E.0344
G1 X125.911 Y106.864 E.02169
G1 X125.583 Y106.991 E.01775
G1 X125.147 Y107.065 E.02232
G1 X124.588 Y107.034 E.02826
G1 X124.203 Y106.916 E.02033
G1 X123.89 Y106.753 E.01781
G1 X123.486 Y106.411 E.02672
G1 X123.289 Y106.141 E.01687
G1 X123.06 Y105.732 E.02366
G1 X122.948 Y105.293 E.02287
G1 X122.948 Y104.707 E.02958
G1 X123.052 Y104.285 E.02194
G1 X123.2 Y103.968 E.01766
G1 X123.486 Y103.589 E.02397
G1 X123.89 Y103.247 E.02672
G1 X124.296 Y103.054 E.02269
G1 X124.823 Y102.938 E.02724
M204 S1000
;WIPE_START
G1 F8640
G1 X124.912 Y102.939 E-.02055
G1 X125.289 Y102.945 E-.08706
G1 X125.758 Y103.074 E-.11232
G1 X126.213 Y103.317 E-.11911
G1 X126.515 Y103.582 E-.09277
G1 X126.732 Y103.856 E-.08071
G1 X126.976 Y104.38 E-.13347
G1 X127.069 Y104.85 E-.11063
G1 X127.065 Y105.202 E-.08128
G1 X126.976 Y105.62 E-.09868
G1 X126.86 Y105.869 E-.06342
;WIPE_END
G1 Z.4 F720
G1 X131.958 Y107.409 F10800
G1 Z.2 F720
G1 E1 F1500
M204 S800
;TYPE:Perimeter
G1 F1200
G1 X131.685 Y108.093 E.03718
G1 X131.312 Y108.798 E.04026
G1 X130.864 Y109.458 E.04027
G1 X130.348 Y110.066 E.04025
G1 X129.769 Y110.614 E.04024
G1 X129.134 Y111.097 E.04027
G1 X128.45 Y111.508 E.04028
G1 X127.727 Y111.843 E.04022
G1 X126.971 Y112.098 E.04027
G1 X126.192 Y112.269 E.04026
G1 X125.399 Y112.355 E.04026
G1 X124.601 Y112.355 E.04028
G1 X123.808 Y112.269 E.04026
G1 X123.029 Y112.098 E.04026
G1 X122.273 Y111.843 E.04027
G1 X121.55 Y111.508 E.04022
G1 X120.866 Y111.097 E.04028
G1 X120.231 Y110.614 E.04027
G1 X119.652 Y110.066 E.04024
G1 X119.136 Y109.458 E.04025
M73 Q3 S9
G1 X118.688 Y108.798 E.04027
G1 X118.315 Y108.093 E.04026
G1 X118.019 Y107.352 E.04028
G1 X117.806 Y106.584 E.04023
G1 X117.677 Y105.796 E.04031
G1 X117.634 Y105 E.04024
G1 X117.677 Y104.204 E.04024
M73 P3 R9
G1 X117.806 Y103.416 E.04031
G1 X117.999 Y102.722 E.03636
G1 X118.317 Y101.903 E.04435
G1 X118.688 Y101.202 E.04004
G1 X119.136 Y100.542 E.04027
G1 X119.652 Y99.934 E.04025
G1 X120.231 Y99.386 E.04024
G1 X120.866 Y98.903 E.04027
G1 X121.55 Y98.492 E.04028
G1 X122.273 Y98.157 E.04022
G1 X123.029 Y97.902 E.04027
G1 X123.808 Y97.731 E.04026
G1 X124.601 Y97.645 E.04026
G1 X125.399 Y97.645 E.04028
G1 X126.192 Y97.731 E.04026
G1 X126.971 Y97.902 E.04026
G1 X127.727 Y98.157 E.04027
G1 X128.45 Y98.492 E.04022
G1 X129.134 Y98.903 E.04028
G1 X129.769 Y99.386 E.04027
G1 X130.348 Y99.934 E.04024
G1 X130.864 Y100.542 E.04025
G1 X131.312 Y101.202 E.04027
G1 X131.685 Y101.907 E.04026
G1 X131.981 Y102.648 E.04028
G1 X132.194 Y103.416 E.04023
G1 X132.281 Y103.946 E.02711
G1 X132.342 Y104.547 E.03049
G1 X132.359 Y105.127 E.02929
G1 X132.323 Y105.796 E.03382
G1 X132.194 Y106.584 E.04031
G1 X131.988 Y107.324 E.03877
M204 S1000
G1 X131.988 Y107.324 F10800
G1 X132.546 Y107.573
M204 S800
;TYPE:External perimeter
G1 F1200
G1 X132.237 Y108.348 E.04212
G1 X131.833 Y109.111 E.04358
G1 X131.348 Y109.826 E.04361
G1 X130.789 Y110.484 E.04358
G1 X130.162 Y111.078 E.0436
G1 X129.475 Y111.6 E.04355
G1 X128.735 Y112.045 E.04359
G1 X127.952 Y112.408 E.04357
G1 X127.133 Y112.684 E.04363
G1 X126.29 Y112.869 E.04357
G1 X125.432 Y112.963 E.04357
G1 X124.568 Y112.963 E.04361
G1 X123.71 Y112.869 E.04357
G1 X122.867 Y112.684 E.04357
G1 X122.048 Y112.408 E.04363
G1 X121.265 Y112.045 E.04357
G1 X120.525 Y111.6 E.04359
G1 X119.838 Y111.078 E.04355
G1 X119.211 Y110.484 E.0436
G1 X118.652 Y109.826 E.04358
G1 X118.167 Y109.111 E.04361
G1 X117.763 Y108.348 E.04358
G1 X117.443 Y107.546 E.04359
G1 X117.212 Y106.714 E.04359
G1 X117.073 Y105.862 E.04358
G1 X117.026 Y105 E.04358
G1 X117.073 Y104.138 E.04358
G1 X117.212 Y103.286 E.04358
G1 X117.422 Y102.531 E.03956
G1 X117.763 Y101.65 E.04769
G1 X118.167 Y100.889 E.04349
G1 X118.652 Y100.174 E.04361
G1 X119.211 Y99.516 E.04358
G1 X119.838 Y98.922 E.0436
G1 X120.525 Y98.4 E.04355
G1 X121.265 Y97.955 E.04359
G1 X122.048 Y97.592 E.04357
G1 X122.867 Y97.316 E.04363
G1 X123.71 Y97.131 E.04357
G1 X124.568 Y97.037 E.04357
G1 X125.432 Y97.037 E.04361
G1 X126.29 Y97.131 E.04357
G1 X127.133 Y97.316 E.04357
G1 X127.952 Y97.592 E.04363
G1 X128.735 Y97.955 E.04357
G1 X129.475 Y98.4 E.04359
G1 X130.162 Y98.922 E.04355
G1 X130.789 Y99.516 E.0436
G1 X131.348 Y100.174 E.04358
G1 X131.833 Y100.889 E.04361
G1 X132.237 Y101.652 E.04358
G1 X132.557 Y102.454 E.04359
G1 X132.788 Y103.286 E.04359
G1 X132.902 Y103.98 E.0355
G1 X132.948 Y104.515 E.02711
G1 X132.966 Y105.16 E.03257
G1 X132.927 Y105.862 E.03549
G1 X132.788 Y106.714 E.04358
G1 X132.573 Y107.487 E.0405
M204 S1000
;WIPE_START
G1 F8640
G1 X132.546 Y107.573 E-.02081
G1 X132.237 Y108.348 E-.19265
G1 X131.833 Y109.111 E-.19935
G1 X131.348 Y109.826 E-.19949
G1 X130.789 Y110.484 E-.19936
G1 X130.197 Y111.045 E-.18834
;WIPE_END
G1 Z.4 F720
G1 X128.445 Y98.772 F10800
G1 Z.2 F720
G1 E1 F1500
M204 S800
;TYPE:Solid infill
;WIDTH:0.664732
G1 F1200
G1 X130.029 Y100.356 E.11582
G1 X130.453 Y100.855 E.03386
G1 X130.869 Y101.469 E.03835
G1 X131.216 Y102.124 E.03832
G1 X131.414 Y102.621 E.02766
G1 X127.378 Y98.584 E.29515
G1 X126.832 Y98.4 E.02979
G1 X126.168 Y98.254 E.03515
G1 X131.738 Y103.824 E.40728
G1 X131.809 Y104.259 E.02279
G1 X131.839 Y104.804 E.02822
G1 X125.195 Y98.161 E.48577
G1 X124.629 Y98.161 E.02926
M73 Q4 S9
G1 X124.347 Y98.191 E.01466
M73 P4 R9
G1 X131.814 Y105.658 E.54599
G1 X131.698 Y106.422 E.03995
G1 X123.585 Y98.308 E.59326
G1 X123.168 Y98.4 E.02208
G1 X122.89 Y98.494 E.01517
G1 X131.511 Y107.114 E.63033
G1 X131.267 Y107.749 E.03517
G1 X128.18 Y104.662 E.22572
G1 X128.191 Y105.232 E.02948
G1 X128.145 Y105.507 E.01442
G1 X130.973 Y108.335 E.20678
G1 X130.869 Y108.531 E.01147
G1 X130.635 Y108.876 E.02155
G1 X127.957 Y106.198 E.19582
G1 X127.909 Y106.333 E.00741
G1 X127.655 Y106.776 E.0264
G1 X130.256 Y109.377 E.19019
G1 X129.973 Y109.71 E.0226
G1 X129.838 Y109.838 E.00962
G1 X127.242 Y107.242 E.18982
G1 X127.016 Y107.479 E.01693
G1 X126.776 Y107.655 E.01539
G1 X129.381 Y110.261 E.19052
G1 X128.882 Y110.64 E.0324
G1 X126.194 Y107.953 E.19651
G1 X125.972 Y108.048 E.01249
G1 X125.511 Y108.149 E.0244
G1 X128.336 Y110.975 E.2066
G1 X127.747 Y111.265 E.03394
G1 X124.326 Y107.843 E.25018
M204 S1000
;WIPE_START
G1 F8640
G1 X127.388 Y110.906 E-1
;WIPE_END
G1 Z.4 F720
G1 X125.686 Y102.169 F10800
G1 Z.2 F720
G1 E1 F1500
M204 S800
G1 F1200
G1 X122.253 Y98.735 E.25106
G1 X121.792 Y98.948 E.02626
G1 X121.664 Y99.025 E.00772
G1 X124.498 Y101.86 E.20726
G1 X123.881 Y102.003 E.03275
G1 X123.8 Y102.041 E.00463
G1 X121.118 Y99.36 E.19607
G1 X120.619 Y99.739 E.0324
G1 X123.231 Y102.352 E.19103
G1 X122.914 Y102.574 E.02001
G1 X122.746 Y102.746 E.01243
G1 X120.162 Y100.162 E.18894
G1 X120.027 Y100.29 E.00962
M73 Q5 S9
G1 X119.744 Y100.623 E.0226
G1 X122.352 Y103.231 E.1907
G1 X122.191 Y103.467 E.01477
M73 P5 R9
G1 X122.047 Y103.806 E.01904
G1 X119.365 Y101.124 E.19611
G1 X119.131 Y101.469 E.02155
G1 X119.027 Y101.665 E.01147
G1 X121.85 Y104.488 E.20642
G1 X121.8 Y105 E.0266
G1 X121.826 Y105.344 E.01784
G1 X118.735 Y102.252 E.22605
G1 X118.489 Y102.886 E.03516
G1 X127.11 Y111.506 E.63033
G1 X126.832 Y111.6 E.01517
G1 X126.415 Y111.692 E.02208
G1 X118.302 Y103.579 E.59323
G1 X118.186 Y104.342 E.0399
G1 X125.653 Y111.809 E.54599
G1 X125.371 Y111.839 E.01466
G1 X124.804 Y111.839 E.02932
G1 X118.161 Y105.196 E.48574
G1 X118.191 Y105.741 E.02822
G1 X118.262 Y106.177 E.02284
G1 X123.832 Y111.746 E.40724
G1 X123.168 Y111.6 E.03515
G1 X122.622 Y111.416 E.02979
G1 X118.586 Y107.38 E.29511
G1 X118.783 Y107.875 E.02755
G1 X119.192 Y108.622 E.04403
G1 X119.547 Y109.145 E.03268
G1 X119.972 Y109.645 E.03393
G1 X121.555 Y111.228 E.11575
M204 S1000
;LAYER_CHANGE
;Z:0.4
;HEIGHT:0.2
;BEFORE_LAYER_CHANGE
G92 E0.0
;0.4


;WIPE_START
G1 F8640
G1 X119.972 Y109.645 E-.51692
G1 X119.547 Y109.145 E-.15152
G1 X119.192 Y108.622 E-.14595
G1 X118.806 Y107.917 E-.18561
;WIPE_END
G1 Z.4 F720
;AFTER_LAYER_CHANGE
;0.4
M104 S240 ; set temperature
M140 S90 ; set bed temperature
; stop printing object Back Plate.STL id:0 copy 0
G1 Z.6
G1 X119.401 Y114.921 F10800
G1 Z.4 F720
G1 E1 F1500
;TYPE:Skirt/Brim
;WIDTH:0.65
G1 F2431
G1 X118.729 Y114.529 E.03927
G1 X117.736 Y113.796 E.0623
G1 X116.827 Y112.959 E.06237
G1 X116.015 Y112.028 E.06236
G1 X115.145 Y110.746 E.07821
G1 X114.582 Y109.646 E.06238
G1 X114.14 Y108.493 E.06233
G1 X113.678 Y106.39 E.10869
G1 X113.594 Y105.158 E.06233
G1 X113.643 Y103.923 E.06239
G1 X113.826 Y102.702 E.06232
G1 X114.116 Y101.596 E.05772
G1 X114.714 Y100.068 E.08283
G1 X115.824 Y98.223 E.10869
G1 X116.611 Y97.27 E.06239
G1 X117.496 Y96.409 E.06233
G1 X118.469 Y95.648 E.06235
G1 X119.281 Y95.139 E.04838
G1 X120.924 Y94.345 E.09211
G1 X122.1 Y93.967 E.06235
G1 X123.31 Y93.718 E.06236
G1 X124.54 Y93.602 E.06236
G1 X125.775 Y93.619 E.06235
G1 X127.9 Y93.967 E.1087
G1 X129.076 Y94.345 E.06235
G1 X130.204 Y94.849 E.06237
G1 X131.271 Y95.471 E.06234
G1 X132.264 Y96.204 E.0623
G1 X133.687 Y97.621 E.10137
G1 X134.855 Y99.254 E.10135
M73 Q6 S9
G1 X135.418 Y100.354 E.06238
G1 X135.86 Y101.507 E.06233
G1 X136.322 Y103.61 E.10869
G1 X136.406 Y104.842 E.06233
G1 X136.357 Y106.077 E.06239
M73 P6 R9
G1 X136.106 Y107.606 E.07822
G1 X135.759 Y108.791 E.06233
G1 X135.286 Y109.932 E.06235
G1 X134.176 Y111.777 E.10869
G1 X133.389 Y112.73 E.06239
G1 X132.504 Y113.591 E.06233
G1 X131.532 Y114.352 E.06231
G1 X130.482 Y115.004 E.06239
G1 X129.076 Y115.655 E.07821
G1 X127.9 Y116.033 E.06235
G1 X126.69 Y116.282 E.06236
G1 X125.46 Y116.398 E.06236
G1 X124.225 Y116.381 E.06235
G1 X122.1 Y116.033 E.1087
G1 X120.924 Y115.655 E.06235
G1 X119.796 Y115.151 E.06237
G1 X119.479 Y114.966 E.01853
G1 X119.479 Y114.966 F10800
G1 X119.785 Y114.444
G1 F2431
